{
    "type": "map",
    "version": "1.10",
    "tiledversion": "1.12.0",
    "orientation": "orthogonal",
    "renderorder": "right-down",
    "width": 30,
    "height": 17,
    "tilewidth": 64,
    "tileheight": 64,
    "infinite": false,
    "nextlayerid": 2,
    "nextobjectid": 10,
    "tilesets": [],
    "layers": [
        {
            "id": 1,
            "name": "walls",
            "type": "objectgroup",
            "class": "collision",
            "draworder": "topdown",
            "opacity": 1,
            "visible": true,
            "x": 0,
            "y": 0,
            "objects": [
                {"id": 1, "name": "floor", "type": "", "x": 0, "y": 1024, "width": 1920, "height": 64, "rotation": 0, "visible": true},
                {"id": 2, "name": "left wall", "type": "", "x": 0, "y": 0, "width": 32, "height": 1024, "rotation": 0, "visible": true},
                {"id": 3, "name": "right wall", "type": "", "x": 1888, "y": 0, "width": 32, "height": 1024, "rotation": 0, "visible": true},
                {"id": 4, "name": "ledge", "type": "", "x": 180, "y": 300, "width": 340, "height": 40, "rotation": 0, "visible": true},
                {"id": 5, "name": "column", "type": "", "x": 620, "y": 560, "width": 64, "height": 340, "rotation": 0, "visible": true},
                {"id": 6, "name": "ramp", "type": "", "x": 140, "y": 1024, "width": 0, "height": 0, "rotation": 0, "visible": true, "polygon": [{"x": 0, "y": 0}, {"x": 380, "y": 0}, {"x": 0, "y": -170}]},
                {"id": 7, "name": "boulder", "type": "", "x": 860, "y": 250, "width": 140, "height": 140, "rotation": 0, "visible": true, "ellipse": true},
                {"id": 8, "name": "fence", "type": "", "x": 1080, "y": 700, "width": 0, "height": 0, "rotation": 0, "visible": true, "polyline": [{"x": 0, "y": 0}, {"x": 180, "y": -90}, {"x": 360, "y": 0}]},
                {"id": 9, "name": "shelf", "type": "", "x": 1400, "y": 460, "width": 300, "height": 36, "rotation": 12, "visible": true}
            ]
        }
    ]
}
