{
  "type": "map",
  "version": "1.10",
  "tiledversion": "1.12.2",
  "orientation": "orthogonal",
  "renderorder": "right-down",
  "width": 56,
  "height": 36,
  "tilewidth": 64,
  "tileheight": 64,
  "infinite": false,
  "backgroundcolor": "#2fb3c4",
  "compressionlevel": -1,
  "nextlayerid": 13,
  "nextobjectid": 163,
  "properties": [
    {
      "name": "seed",
      "type": "int",
      "value": 20260927
    }
  ],
  "tilesets": [
    {
      "firstgid": 1,
      "source": "terrain.tsj"
    },
    {
      "firstgid": 337,
      "source": "foam.tsj"
    },
    {
      "firstgid": 341,
      "source": "decorations.tsj"
    }
  ],
  "layers": [
    {
      "id": 1,
      "name": "water",
      "type": "imagelayer",
      "x": 0,
      "y": 0,
      "opacity": 1,
      "visible": true,
      "image": "../world/water.png",
      "imagewidth": 256,
      "imageheight": 256,
      "repeatx": true,
      "repeaty": true
    },
    {
      "id": 2,
      "name": "foam",
      "type": "tilelayer",
      "x": 0,
      "y": 0,
      "width": 56,
      "height": 36,
      "opacity": 1,
      "visible": true,
      "data": [
        0,
        0,
        0,
        0,
        0,
        0,
        0,
        0,
        0,
        0,
        0,
        0,
        0,
        0,
        0,
        0,
        0,
        0,
        0,
        0,
        0,
        0,
        0,
        0,
        0,
        0,
        0,
        0,
        0,
        0,
        0,
        0,
        0,
        0,
        0,
        0,
        0,
        0,
        0,
        0,
        0,
        0,
        0,
        0,
        0,
        0,
        0,
        0,
        0,
        0,
        0,
        0,
        0,
        0,
        0,
        0,
        0,
        0,
        0,
        0,
        0,
        0,
        0,
        0,
        0,
        0,
        0,
        0,
        0,
        0,
        0,
        0,
        0,
        0,
        0,
        0,
        0,
        0,
        0,
        0,
        0,
        0,
        0,
        0,
        0,
        0,
        0,
        0,
        0,
        0,
        0,
        0,
        0,
        0,
        0,
        0,
        0,
        0,
        0,
        0,
        0,
        0,
        0,
        0,
        0,
        0,
        0,
        0,
        0,
        0,
        0,
        0,
        0,
        0,
        0,
        0,
        0,
        0,
        0,
        0,
        0,
        0,
        0,
        0,
        0,
        0,
        0,
        0,
        0,
        0,
        0,
        0,
        0,
        0,
        0,
        0,
        0,
        0,
        0,
        0,
        0,
        0,
        0,
        0,
        0,
        0,
        0,
        0,
        0,
        0,
        0,
        0,
        0,
        0,
        0,
        0,
        0,
        0,
        0,
        0,
        0,
        0,
        0,
        0,
        0,
        0,
        0,
        0,
        0,
        0,
        0,
        0,
        0,
        0,
        0,
        0,
        0,
        0,
        0,
        0,
        0,
        0,
        0,
        0,
        0,
        0,
        0,
        0,
        0,
        0,
        0,
        0,
        0,
        0,
        0,
        0,
        0,
        0,
        0,
        0,
        0,
        0,
        0,
        0,
        0,
        0,
        0,
        0,
        0,
        0,
        0,
        0,
        0,
        0,
        0,
        0,
        0,
        0,
        0,
        0,
        0,
        0,
        0,
        0,
        0,
        0,
        0,
        0,
        0,
        0,
        0,
        0,
        0,
        0,
        0,
        0,
        0,
        0,
        0,
        0,
        0,
        0,
        0,
        0,
        0,
        0,
        0,
        0,
        0,
        0,
        0,
        0,
        0,
        337,
        337,
        337,
        337,
        337,
        337,
        337,
        337,
        337,
        0,
        0,
        0,
        0,
        0,
        0,
        0,
        0,
        0,
        0,
        0,
        0,
        0,
        0,
        0,
        0,
        0,
        0,
        0,
        0,
        0,
        0,
        0,
        0,
        0,
        0,
        0,
        0,
        0,
        0,
        0,
        0,
        0,
        0,
        0,
        0,
        0,
        0,
        0,
        0,
        0,
        0,
        0,
        0,
        337,
        337,
        337,
        337,
        0,
        0,
        0,
        0,
        0,
        0,
        0,
        337,
        337,
        0,
        0,
        0,
        0,
        0,
        0,
        0,
        0,
        0,
        0,
        0,
        0,
        0,
        0,
        0,
        0,
        0,
        0,
        0,
        0,
        0,
        0,
        0,
        0,
        0,
        0,
        0,
        0,
        0,
        0,
        0,
        0,
        0,
        0,
        0,
        0,
        0,
        0,
        0,
        0,
        337,
        337,
        337,
        337,
        0,
        0,
        0,
        0,
        0,
        0,
        0,
        0,
        0,
        0,
        0,
        337,
        337,
        0,
        0,
        0,
        0,
        0,
        0,
        0,
        0,
        0,
        0,
        0,
        0,
        0,
        0,
        0,
        0,
        0,
        0,
        0,
        0,
        0,
        0,
        0,
        0,
        0,
        0,
        0,
        0,
        0,
        0,
        0,
        0,
        0,
        0,
        0,
        0,
        0,
        337,
        337,
        337,
        0,
        0,
        0,
        0,
        0,
        0,
        0,
        0,
        0,
        0,
        0,
        0,
        0,
        0,
        0,
        337,
        337,
        0,
        0,
        0,
        0,
        0,
        0,
        0,
        0,
        0,
        0,
        0,
        0,
        0,
        0,
        0,
        0,
        0,
        0,
        0,
        0,
        0,
        0,
        0,
        0,
        0,
        0,
        0,
        0,
        0,
        337,
        337,
        337,
        337,
        337,
        337,
        337,
        337,
        0,
        0,
        0,
        0,
        0,
        0,
        0,
        0,
        0,
        0,
        0,
        0,
        0,
        0,
        0,
        0,
        0,
        0,
        337,
        337,
        337,
        337,
        0,
        0,
        0,
        0,
        0,
        0,
        0,
        0,
        0,
        0,
        0,
        0,
        0,
        0,
        0,
        0,
        0,
        0,
        0,
        0,
        0,
        0,
        0,
        0,
        337,
        337,
        337,
        0,
        0,
        0,
        0,
        0,
        0,
        0,
        0,
        0,
        0,
        0,
        0,
        0,
        0,
        0,
        0,
        0,
        0,
        0,
        0,
        0,
        0,
        0,
        0,
        0,
        0,
        0,
        0,
        337,
        337,
        0,
        0,
        0,
        0,
        0,
        0,
        0,
        0,
        0,
        0,
        0,
        0,
        0,
        0,
        0,
        0,
        0,
        0,
        0,
        0,
        0,
        337,
        337,
        337,
        0,
        0,
        0,
        0,
        0,
        0,
        0,
        0,
        0,
        0,
        0,
        0,
        0,
        0,
        0,
        0,
        0,
        0,
        0,
        0,
        0,
        0,
        0,
        0,
        0,
        0,
        0,
        0,
        0,
        0,
        0,
        337,
        0,
        0,
        0,
        0,
        0,
        0,
        0,
        0,
        0,
        0,
        0,
        0,
        0,
        0,
        0,
        0,
        0,
        0,
        0,
        0,
        337,
        337,
        0,
        0,
        0,
        0,
        0,
        0,
        0,
        0,
        0,
        0,
        0,
        0,
        0,
        0,
        0,
        0,
        0,
        0,
        0,
        0,
        0,
        0,
        0,
        0,
        0,
        0,
        0,
        0,
        0,
        0,
        0,
        0,
        0,
        337,
        337,
        0,
        0,
        0,
        0,
        0,
        0,
        0,
        0,
        0,
        0,
        0,
        0,
        0,
        0,
        0,
        0,
        0,
        0,
        337,
        337,
        0,
        0,
        0,
        0,
        0,
        0,
        0,
        0,
        0,
        0,
        0,
        0,
        0,
        0,
        0,
        0,
        0,
        0,
        0,
        0,
        0,
        0,
        0,
        0,
        0,
        0,
        0,
        0,
        0,
        0,
        0,
        0,
        0,
        0,
        0,
        337,
        0,
        0,
        0,
        0,
        0,
        0,
        0,
        0,
        0,
        0,
        0,
        0,
        0,
        0,
        0,
        0,
        0,
        337,
        337,
        0,
        0,
        0,
        0,
        0,
        0,
        0,
        0,
        0,
        0,
        0,
        0,
        0,
        0,
        0,
        0,
        0,
        0,
        0,
        0,
        0,
        0,
        0,
        0,
        0,
        0,
        0,
        0,
        0,
        0,
        0,
        0,
        0,
        0,
        0,
        0,
        337,
        0,
        0,
        0,
        0,
        0,
        0,
        0,
        0,
        0,
        0,
        0,
        0,
        0,
        0,
        0,
        0,
        337,
        337,
        0,
        0,
        0,
        0,
        0,
        0,
        0,
        0,
        0,
        0,
        0,
        0,
        0,
        0,
        0,
        0,
        0,
        0,
        0,
        0,
        0,
        0,
        0,
        0,
        0,
        0,
        0,
        0,
        0,
        0,
        0,
        0,
        0,
        0,
        0,
        0,
        0,
        337,
        0,
        0,
        0,
        0,
        0,
        0,
        0,
        0,
        0,
        0,
        0,
        0,
        0,
        0,
        0,
        337,
        337,
        0,
        0,
        0,
        0,
        0,
        0,
        0,
        0,
        0,
        0,
        0,
        0,
        0,
        0,
        0,
        0,
        0,
        0,
        0,
        0,
        0,
        0,
        0,
        0,
        0,
        0,
        0,
        0,
        0,
        0,
        0,
        0,
        0,
        0,
        0,
        0,
        0,
        0,
        337,
        337,
        0,
        0,
        0,
        0,
        0,
        0,
        0,
        0,
        0,
        0,
        0,
        0,
        0,
        0,
        337,
        0,
        0,
        0,
        0,
        0,
        0,
        0,
        0,
        0,
        0,
        0,
        0,
        0,
        0,
        0,
        0,
        0,
        0,
        0,
        0,
        0,
        0,
        0,
        0,
        0,
        0,
        0,
        0,
        0,
        0,
        0,
        0,
        0,
        0,
        0,
        0,
        0,
        0,
        0,
        0,
        337,
        0,
        0,
        0,
        0,
        0,
        0,
        0,
        0,
        0,
        0,
        0,
        0,
        0,
        0,
        337,
        0,
        0,
        0,
        0,
        0,
        0,
        0,
        0,
        0,
        0,
        0,
        0,
        0,
        0,
        0,
        0,
        0,
        0,
        0,
        0,
        0,
        0,
        0,
        0,
        0,
        0,
        0,
        0,
        0,
        0,
        0,
        0,
        0,
        0,
        0,
        0,
        0,
        0,
        0,
        0,
        337,
        0,
        0,
        0,
        0,
        0,
        0,
        0,
        0,
        0,
        0,
        0,
        0,
        0,
        0,
        337,
        0,
        0,
        0,
        0,
        0,
        0,
        0,
        0,
        0,
        0,
        0,
        0,
        0,
        0,
        0,
        0,
        0,
        0,
        0,
        0,
        0,
        0,
        0,
        0,
        0,
        0,
        0,
        0,
        0,
        0,
        0,
        0,
        0,
        0,
        0,
        0,
        0,
        0,
        0,
        0,
        337,
        0,
        0,
        0,
        0,
        0,
        0,
        0,
        0,
        0,
        0,
        0,
        0,
        0,
        0,
        337,
        0,
        0,
        0,
        0,
        0,
        0,
        0,
        0,
        0,
        0,
        0,
        0,
        0,
        0,
        0,
        0,
        0,
        0,
        0,
        0,
        0,
        0,
        0,
        0,
        0,
        0,
        0,
        0,
        0,
        0,
        0,
        0,
        0,
        0,
        0,
        0,
        0,
        0,
        0,
        337,
        337,
        0,
        0,
        0,
        0,
        0,
        0,
        0,
        0,
        0,
        0,
        0,
        0,
        0,
        0,
        337,
        0,
        0,
        0,
        0,
        0,
        0,
        0,
        0,
        0,
        0,
        0,
        0,
        0,
        0,
        0,
        0,
        0,
        0,
        0,
        0,
        0,
        0,
        0,
        0,
        0,
        0,
        0,
        0,
        0,
        0,
        0,
        0,
        0,
        0,
        0,
        0,
        0,
        0,
        0,
        337,
        0,
        0,
        0,
        0,
        0,
        0,
        0,
        0,
        0,
        0,
        0,
        0,
        0,
        0,
        0,
        337,
        0,
        0,
        0,
        0,
        0,
        0,
        0,
        0,
        0,
        0,
        0,
        0,
        0,
        0,
        0,
        0,
        0,
        0,
        0,
        0,
        0,
        0,
        0,
        0,
        0,
        0,
        0,
        0,
        0,
        0,
        0,
        0,
        0,
        0,
        0,
        0,
        0,
        0,
        337,
        337,
        0,
        0,
        0,
        0,
        0,
        0,
        0,
        0,
        0,
        0,
        0,
        0,
        0,
        0,
        0,
        337,
        337,
        0,
        0,
        0,
        0,
        0,
        0,
        0,
        0,
        0,
        0,
        0,
        0,
        0,
        0,
        0,
        0,
        0,
        0,
        0,
        0,
        0,
        0,
        0,
        0,
        0,
        0,
        0,
        0,
        0,
        0,
        0,
        0,
        0,
        0,
        0,
        0,
        337,
        337,
        0,
        0,
        0,
        0,
        0,
        0,
        0,
        0,
        0,
        0,
        0,
        0,
        0,
        0,
        0,
        0,
        0,
        337,
        337,
        0,
        0,
        0,
        0,
        0,
        0,
        0,
        0,
        0,
        0,
        0,
        0,
        0,
        0,
        0,
        0,
        0,
        0,
        0,
        0,
        0,
        0,
        0,
        0,
        0,
        0,
        0,
        0,
        0,
        0,
        0,
        0,
        0,
        0,
        337,
        337,
        0,
        0,
        0,
        0,
        0,
        0,
        0,
        0,
        0,
        0,
        0,
        0,
        0,
        0,
        0,
        0,
        0,
        0,
        0,
        337,
        337,
        0,
        0,
        0,
        0,
        0,
        0,
        0,
        0,
        0,
        0,
        0,
        0,
        0,
        0,
        0,
        0,
        0,
        0,
        0,
        0,
        0,
        0,
        0,
        0,
        0,
        0,
        0,
        0,
        0,
        0,
        0,
        0,
        0,
        337,
        0,
        0,
        0,
        0,
        0,
        0,
        0,
        0,
        0,
        0,
        0,
        0,
        0,
        0,
        0,
        0,
        0,
        0,
        0,
        0,
        0,
        337,
        337,
        337,
        0,
        0,
        0,
        0,
        0,
        0,
        0,
        0,
        0,
        0,
        0,
        0,
        0,
        0,
        0,
        0,
        0,
        0,
        0,
        0,
        0,
        0,
        0,
        0,
        0,
        0,
        0,
        0,
        0,
        0,
        0,
        337,
        0,
        0,
        0,
        0,
        0,
        0,
        0,
        0,
        0,
        0,
        0,
        0,
        0,
        0,
        0,
        0,
        0,
        0,
        0,
        0,
        0,
        0,
        0,
        337,
        337,
        337,
        337,
        0,
        0,
        0,
        0,
        0,
        0,
        0,
        0,
        0,
        0,
        0,
        0,
        0,
        0,
        0,
        0,
        0,
        0,
        0,
        0,
        0,
        0,
        0,
        0,
        0,
        0,
        0,
        0,
        337,
        0,
        0,
        0,
        0,
        0,
        0,
        0,
        0,
        0,
        0,
        0,
        0,
        0,
        0,
        0,
        0,
        0,
        0,
        0,
        0,
        0,
        0,
        0,
        0,
        0,
        0,
        337,
        337,
        337,
        337,
        0,
        0,
        0,
        0,
        0,
        0,
        0,
        0,
        0,
        337,
        337,
        337,
        337,
        337,
        337,
        337,
        0,
        0,
        0,
        0,
        0,
        0,
        0,
        0,
        0,
        337,
        337,
        0,
        0,
        0,
        0,
        0,
        0,
        0,
        0,
        0,
        0,
        0,
        0,
        0,
        0,
        0,
        0,
        0,
        0,
        0,
        0,
        0,
        0,
        0,
        0,
        0,
        0,
        0,
        0,
        337,
        337,
        0,
        0,
        337,
        337,
        337,
        337,
        337,
        337,
        337,
        0,
        0,
        0,
        0,
        0,
        337,
        337,
        0,
        0,
        0,
        0,
        0,
        0,
        0,
        0,
        0,
        337,
        0,
        0,
        0,
        0,
        0,
        0,
        0,
        0,
        0,
        0,
        0,
        0,
        0,
        0,
        0,
        0,
        0,
        0,
        0,
        0,
        0,
        0,
        0,
        0,
        0,
        0,
        0,
        0,
        0,
        337,
        337,
        337,
        337,
        0,
        0,
        0,
        0,
        0,
        0,
        0,
        0,
        0,
        0,
        0,
        0,
        337,
        337,
        0,
        0,
        0,
        0,
        0,
        0,
        0,
        337,
        337,
        0,
        0,
        0,
        0,
        0,
        0,
        0,
        0,
        0,
        0,
        0,
        0,
        0,
        0,
        0,
        0,
        0,
        0,
        0,
        0,
        0,
        0,
        0,
        0,
        0,
        0,
        0,
        0,
        0,
        0,
        337,
        337,
        0,
        0,
        0,
        0,
        0,
        0,
        0,
        0,
        0,
        0,
        0,
        0,
        0,
        0,
        337,
        337,
        0,
        0,
        0,
        337,
        337,
        337,
        337,
        0,
        0,
        0,
        0,
        0,
        0,
        0,
        0,
        0,
        0,
        0,
        0,
        0,
        0,
        0,
        0,
        0,
        0,
        0,
        0,
        0,
        0,
        0,
        0,
        0,
        0,
        0,
        0,
        0,
        0,
        0,
        0,
        0,
        0,
        0,
        0,
        0,
        0,
        0,
        0,
        0,
        0,
        0,
        0,
        0,
        0,
        0,
        0,
        337,
        337,
        337,
        337,
        337,
        0,
        0,
        0,
        0,
        0,
        0,
        0,
        0,
        0,
        0,
        0,
        0,
        0,
        0,
        0,
        0,
        0,
        0,
        0,
        0,
        0,
        0,
        0,
        0,
        0,
        0,
        0,
        0,
        0,
        0,
        0,
        0,
        0,
        0,
        0,
        0,
        0,
        0,
        0,
        0,
        0,
        0,
        0,
        0,
        0,
        0,
        0,
        0,
        0,
        0,
        0,
        0,
        0,
        0,
        0,
        0,
        0,
        0,
        0,
        0,
        0,
        0,
        0,
        0,
        0,
        0,
        0,
        0,
        0,
        0,
        0,
        0,
        0,
        0,
        0,
        0,
        0,
        0,
        0,
        0,
        0,
        0,
        0,
        0,
        0,
        0,
        0,
        0,
        0,
        0,
        0,
        0,
        0,
        0,
        0,
        0,
        0,
        0,
        0,
        0,
        0,
        0,
        0,
        0,
        0,
        0,
        0,
        0,
        0,
        0,
        0,
        0,
        0,
        0,
        0,
        0,
        0,
        0,
        0,
        0,
        0,
        0,
        0,
        0,
        0,
        0,
        0,
        0,
        0,
        0,
        0,
        0,
        0,
        0,
        0,
        0,
        0,
        0,
        0,
        0,
        0,
        0,
        0,
        0,
        0,
        0,
        0,
        0,
        0,
        0,
        0,
        0,
        0,
        0,
        0,
        0,
        0,
        0,
        0,
        0,
        0,
        0,
        0,
        0,
        0,
        0,
        0,
        0,
        0,
        0,
        0,
        0,
        0,
        0,
        0,
        0,
        0,
        0,
        0,
        0,
        0,
        0,
        0,
        0,
        0,
        0,
        0,
        0,
        0,
        0,
        0,
        0,
        0,
        0,
        0,
        0,
        0,
        0,
        0,
        0,
        0,
        0,
        0,
        0,
        0,
        0,
        0,
        0,
        0,
        0,
        0,
        0,
        0,
        0,
        0,
        0,
        0,
        0,
        0,
        0,
        0,
        0,
        0,
        0,
        0,
        0,
        0,
        0,
        0,
        0,
        0,
        0,
        0,
        0,
        0,
        0,
        0,
        0,
        0,
        0
      ],
      "properties": [
        {
          "name": "collision",
          "type": "bool",
          "value": false
        }
      ]
    },
    {
      "id": 3,
      "name": "sand",
      "type": "tilelayer",
      "x": 0,
      "y": 0,
      "width": 56,
      "height": 36,
      "opacity": 1,
      "visible": true,
      "data": [
        0,
        0,
        0,
        0,
        0,
        0,
        0,
        0,
        0,
        0,
        0,
        0,
        0,
        0,
        0,
        0,
        0,
        0,
        0,
        0,
        0,
        0,
        0,
        0,
        0,
        0,
        0,
        0,
        0,
        0,
        0,
        0,
        0,
        0,
        0,
        0,
        0,
        0,
        0,
        0,
        0,
        0,
        0,
        0,
        0,
        0,
        0,
        0,
        0,
        0,
        0,
        0,
        0,
        0,
        0,
        0,
        0,
        0,
        0,
        0,
        0,
        0,
        0,
        0,
        0,
        0,
        0,
        0,
        0,
        0,
        0,
        0,
        0,
        0,
        0,
        0,
        0,
        0,
        0,
        0,
        0,
        0,
        0,
        0,
        0,
        0,
        0,
        0,
        0,
        0,
        0,
        0,
        0,
        0,
        0,
        0,
        0,
        0,
        0,
        0,
        0,
        0,
        0,
        0,
        0,
        0,
        0,
        0,
        0,
        0,
        0,
        0,
        0,
        0,
        0,
        0,
        0,
        0,
        0,
        0,
        0,
        0,
        0,
        0,
        0,
        0,
        0,
        0,
        0,
        0,
        0,
        0,
        0,
        0,
        0,
        0,
        0,
        0,
        0,
        0,
        0,
        0,
        0,
        0,
        0,
        0,
        0,
        0,
        0,
        0,
        0,
        0,
        0,
        0,
        0,
        0,
        0,
        0,
        0,
        0,
        0,
        0,
        0,
        0,
        0,
        0,
        0,
        0,
        0,
        0,
        0,
        0,
        0,
        0,
        0,
        0,
        0,
        0,
        0,
        0,
        0,
        0,
        0,
        0,
        0,
        0,
        0,
        0,
        0,
        0,
        0,
        0,
        0,
        0,
        0,
        0,
        41,
        61,
        45,
        61,
        45,
        61,
        45,
        61,
        45,
        53,
        0,
        0,
        0,
        0,
        0,
        0,
        0,
        0,
        0,
        0,
        0,
        0,
        0,
        0,
        0,
        0,
        0,
        0,
        0,
        0,
        0,
        0,
        0,
        0,
        0,
        0,
        0,
        0,
        0,
        0,
        0,
        0,
        0,
        0,
        0,
        0,
        0,
        0,
        0,
        0,
        0,
        0,
        0,
        25,
        13,
        29,
        15,
        32,
        16,
        32,
        16,
        32,
        16,
        32,
        16,
        30,
        5,
        0,
        0,
        0,
        0,
        0,
        0,
        0,
        0,
        0,
        0,
        0,
        0,
        0,
        0,
        0,
        0,
        0,
        0,
        0,
        0,
        0,
        0,
        0,
        0,
        0,
        0,
        0,
        0,
        0,
        0,
        0,
        0,
        0,
        0,
        0,
        0,
        0,
        0,
        0,
        41,
        61,
        45,
        63,
        48,
        64,
        48,
        64,
        48,
        64,
        48,
        64,
        48,
        64,
        48,
        64,
        46,
        53,
        0,
        0,
        0,
        0,
        0,
        0,
        0,
        0,
        0,
        0,
        0,
        0,
        0,
        0,
        0,
        0,
        0,
        0,
        0,
        0,
        0,
        0,
        0,
        0,
        0,
        0,
        0,
        0,
        0,
        0,
        0,
        0,
        0,
        0,
        0,
        0,
        9,
        29,
        15,
        32,
        16,
        32,
        16,
        32,
        16,
        32,
        16,
        32,
        16,
        32,
        16,
        32,
        16,
        32,
        16,
        30,
        5,
        0,
        0,
        0,
        0,
        0,
        0,
        0,
        0,
        0,
        0,
        0,
        0,
        0,
        0,
        0,
        0,
        0,
        0,
        0,
        0,
        0,
        0,
        0,
        0,
        0,
        0,
        0,
        0,
        57,
        45,
        61,
        45,
        61,
        45,
        61,
        47,
        64,
        48,
        64,
        48,
        64,
        48,
        64,
        48,
        64,
        48,
        64,
        48,
        64,
        48,
        64,
        48,
        64,
        48,
        64,
        46,
        61,
        45,
        53,
        0,
        0,
        0,
        0,
        0,
        0,
        0,
        0,
        0,
        0,
        0,
        0,
        0,
        0,
        0,
        0,
        0,
        0,
        0,
        0,
        0,
        0,
        0,
        25,
        13,
        31,
        16,
        32,
        16,
        32,
        16,
        32,
        16,
        32,
        16,
        32,
        16,
        32,
        16,
        32,
        16,
        32,
        16,
        32,
        16,
        32,
        16,
        32,
        16,
        32,
        16,
        32,
        16,
        32,
        16,
        30,
        5,
        0,
        0,
        0,
        0,
        0,
        0,
        0,
        0,
        0,
        0,
        0,
        0,
        0,
        0,
        0,
        0,
        0,
        0,
        0,
        0,
        57,
        45,
        63,
        48,
        64,
        48,
        64,
        48,
        64,
        48,
        64,
        48,
        64,
        48,
        64,
        48,
        64,
        48,
        64,
        48,
        64,
        48,
        64,
        48,
        64,
        48,
        64,
        48,
        64,
        48,
        64,
        48,
        64,
        48,
        64,
        38,
        0,
        0,
        0,
        0,
        0,
        0,
        0,
        0,
        0,
        0,
        0,
        0,
        0,
        0,
        0,
        0,
        0,
        0,
        0,
        9,
        31,
        16,
        32,
        16,
        32,
        16,
        32,
        16,
        32,
        16,
        32,
        16,
        32,
        16,
        32,
        16,
        32,
        16,
        32,
        16,
        32,
        16,
        32,
        16,
        32,
        16,
        32,
        16,
        32,
        16,
        32,
        16,
        32,
        16,
        32,
        14,
        21,
        0,
        0,
        0,
        0,
        0,
        0,
        0,
        0,
        0,
        0,
        0,
        0,
        0,
        0,
        0,
        0,
        0,
        57,
        47,
        64,
        48,
        64,
        48,
        64,
        48,
        64,
        48,
        64,
        48,
        64,
        48,
        64,
        48,
        64,
        48,
        64,
        48,
        64,
        48,
        64,
        48,
        64,
        48,
        64,
        48,
        64,
        48,
        64,
        48,
        64,
        48,
        64,
        48,
        64,
        48,
        54,
        0,
        0,
        0,
        0,
        0,
        0,
        0,
        0,
        0,
        0,
        0,
        0,
        0,
        0,
        0,
        0,
        9,
        31,
        16,
        32,
        16,
        32,
        16,
        32,
        16,
        32,
        16,
        32,
        16,
        32,
        16,
        32,
        16,
        32,
        16,
        32,
        16,
        32,
        16,
        32,
        16,
        32,
        16,
        32,
        16,
        32,
        16,
        32,
        16,
        32,
        16,
        32,
        16,
        32,
        16,
        22,
        0,
        0,
        0,
        0,
        0,
        0,
        0,
        0,
        0,
        0,
        0,
        0,
        0,
        0,
        0,
        57,
        47,
        64,
        48,
        64,
        48,
        64,
        48,
        64,
        48,
        64,
        48,
        64,
        48,
        64,
        48,
        64,
        48,
        64,
        48,
        64,
        48,
        64,
        48,
        64,
        48,
        64,
        48,
        64,
        48,
        64,
        48,
        64,
        48,
        64,
        48,
        64,
        48,
        64,
        48,
        54,
        0,
        0,
        0,
        0,
        0,
        0,
        0,
        0,
        0,
        0,
        0,
        0,
        0,
        0,
        9,
        31,
        16,
        32,
        16,
        32,
        16,
        32,
        16,
        32,
        16,
        32,
        16,
        32,
        16,
        32,
        16,
        32,
        16,
        32,
        16,
        32,
        16,
        32,
        16,
        32,
        16,
        32,
        16,
        32,
        16,
        32,
        16,
        32,
        16,
        32,
        16,
        32,
        16,
        32,
        16,
        30,
        5,
        0,
        0,
        0,
        0,
        0,
        0,
        0,
        0,
        0,
        0,
        0,
        0,
        0,
        43,
        64,
        48,
        64,
        48,
        64,
        48,
        64,
        48,
        64,
        48,
        64,
        48,
        64,
        48,
        64,
        48,
        64,
        48,
        64,
        48,
        64,
        48,
        64,
        48,
        64,
        48,
        64,
        48,
        64,
        48,
        64,
        48,
        64,
        48,
        64,
        48,
        64,
        48,
        64,
        48,
        64,
        38,
        0,
        0,
        0,
        0,
        0,
        0,
        0,
        0,
        0,
        0,
        0,
        0,
        0,
        11,
        32,
        16,
        32,
        16,
        32,
        16,
        32,
        16,
        32,
        16,
        32,
        16,
        32,
        16,
        32,
        16,
        32,
        16,
        32,
        16,
        32,
        16,
        32,
        16,
        32,
        16,
        32,
        16,
        32,
        16,
        32,
        16,
        32,
        16,
        32,
        16,
        32,
        16,
        32,
        16,
        32,
        6,
        0,
        0,
        0,
        0,
        0,
        0,
        0,
        0,
        0,
        0,
        0,
        0,
        0,
        43,
        64,
        48,
        64,
        48,
        64,
        48,
        64,
        48,
        64,
        48,
        64,
        48,
        64,
        48,
        64,
        48,
        64,
        48,
        64,
        48,
        64,
        48,
        64,
        48,
        64,
        48,
        64,
        48,
        64,
        48,
        64,
        48,
        64,
        48,
        64,
        48,
        64,
        48,
        64,
        48,
        64,
        38,
        0,
        0,
        0,
        0,
        0,
        0,
        0,
        0,
        0,
        0,
        0,
        0,
        0,
        11,
        32,
        16,
        32,
        16,
        32,
        16,
        32,
        16,
        32,
        16,
        32,
        16,
        32,
        16,
        32,
        16,
        32,
        16,
        32,
        16,
        32,
        16,
        32,
        16,
        32,
        16,
        32,
        16,
        32,
        16,
        32,
        16,
        32,
        16,
        32,
        16,
        32,
        16,
        32,
        16,
        32,
        6,
        0,
        0,
        0,
        0,
        0,
        0,
        0,
        0,
        0,
        0,
        0,
        0,
        0,
        43,
        64,
        48,
        64,
        48,
        64,
        48,
        64,
        48,
        64,
        48,
        64,
        48,
        64,
        48,
        64,
        48,
        64,
        48,
        64,
        48,
        64,
        48,
        64,
        48,
        64,
        48,
        64,
        48,
        64,
        48,
        64,
        48,
        64,
        48,
        64,
        48,
        64,
        48,
        64,
        48,
        56,
        34,
        0,
        0,
        0,
        0,
        0,
        0,
        0,
        0,
        0,
        0,
        0,
        0,
        0,
        11,
        32,
        16,
        32,
        16,
        32,
        16,
        32,
        16,
        32,
        16,
        32,
        16,
        32,
        16,
        32,
        16,
        32,
        16,
        32,
        16,
        32,
        16,
        32,
        16,
        32,
        16,
        32,
        16,
        32,
        16,
        32,
        16,
        32,
        16,
        32,
        16,
        32,
        16,
        32,
        16,
        22,
        0,
        0,
        0,
        0,
        0,
        0,
        0,
        0,
        0,
        0,
        0,
        0,
        0,
        0,
        43,
        64,
        48,
        64,
        48,
        64,
        48,
        64,
        48,
        64,
        48,
        64,
        48,
        64,
        48,
        64,
        48,
        64,
        48,
        64,
        48,
        64,
        48,
        64,
        48,
        64,
        48,
        64,
        48,
        64,
        48,
        64,
        48,
        64,
        48,
        64,
        48,
        64,
        48,
        64,
        40,
        50,
        0,
        0,
        0,
        0,
        0,
        0,
        0,
        0,
        0,
        0,
        0,
        0,
        0,
        0,
        3,
        28,
        16,
        32,
        16,
        32,
        16,
        32,
        16,
        32,
        16,
        32,
        16,
        32,
        16,
        32,
        16,
        32,
        16,
        32,
        16,
        32,
        16,
        32,
        16,
        32,
        16,
        32,
        16,
        32,
        16,
        32,
        16,
        32,
        16,
        32,
        16,
        32,
        16,
        24,
        2,
        0,
        0,
        0,
        0,
        0,
        0,
        0,
        0,
        0,
        0,
        0,
        0,
        0,
        0,
        0,
        0,
        51,
        44,
        64,
        48,
        64,
        48,
        64,
        48,
        64,
        48,
        64,
        48,
        64,
        48,
        64,
        48,
        64,
        48,
        64,
        48,
        64,
        48,
        64,
        48,
        64,
        48,
        64,
        48,
        64,
        48,
        64,
        48,
        64,
        48,
        64,
        48,
        64,
        40,
        50,
        0,
        0,
        0,
        0,
        0,
        0,
        0,
        0,
        0,
        0,
        0,
        0,
        0,
        0,
        0,
        0,
        0,
        0,
        3,
        28,
        16,
        32,
        16,
        32,
        16,
        32,
        16,
        32,
        16,
        32,
        16,
        32,
        16,
        32,
        16,
        32,
        16,
        32,
        16,
        32,
        16,
        32,
        16,
        32,
        16,
        32,
        16,
        32,
        16,
        32,
        16,
        32,
        16,
        32,
        6,
        0,
        0,
        0,
        0,
        0,
        0,
        0,
        0,
        0,
        0,
        0,
        0,
        0,
        0,
        0,
        0,
        0,
        0,
        0,
        0,
        51,
        36,
        60,
        48,
        64,
        48,
        64,
        48,
        64,
        48,
        64,
        48,
        64,
        48,
        64,
        48,
        64,
        48,
        64,
        48,
        64,
        48,
        64,
        48,
        64,
        48,
        64,
        48,
        64,
        48,
        64,
        48,
        64,
        48,
        64,
        38,
        0,
        0,
        0,
        0,
        0,
        0,
        0,
        0,
        0,
        0,
        0,
        0,
        0,
        0,
        0,
        0,
        0,
        0,
        0,
        0,
        0,
        0,
        19,
        4,
        20,
        12,
        32,
        16,
        32,
        16,
        32,
        16,
        32,
        16,
        32,
        16,
        32,
        16,
        32,
        16,
        32,
        16,
        32,
        16,
        32,
        16,
        32,
        16,
        32,
        16,
        32,
        16,
        32,
        16,
        32,
        14,
        21,
        0,
        0,
        0,
        0,
        0,
        0,
        0,
        0,
        0,
        0,
        0,
        0,
        0,
        0,
        0,
        0,
        0,
        0,
        0,
        0,
        0,
        0,
        0,
        0,
        35,
        52,
        36,
        60,
        48,
        64,
        48,
        64,
        48,
        64,
        48,
        64,
        48,
        64,
        40,
        52,
        36,
        52,
        36,
        60,
        48,
        64,
        48,
        64,
        48,
        64,
        48,
        64,
        48,
        64,
        48,
        54,
        0,
        0,
        0,
        0,
        0,
        0,
        0,
        0,
        0,
        0,
        0,
        0,
        0,
        0,
        0,
        0,
        0,
        0,
        0,
        0,
        0,
        0,
        0,
        0,
        0,
        0,
        0,
        19,
        12,
        32,
        16,
        32,
        8,
        20,
        4,
        20,
        4,
        20,
        2,
        0,
        0,
        0,
        0,
        19,
        12,
        32,
        16,
        32,
        16,
        32,
        16,
        32,
        16,
        32,
        16,
        22,
        0,
        0,
        0,
        0,
        0,
        0,
        0,
        0,
        0,
        0,
        0,
        0,
        0,
        0,
        0,
        0,
        0,
        0,
        0,
        0,
        0,
        0,
        0,
        0,
        0,
        0,
        0,
        0,
        35,
        60,
        48,
        56,
        34,
        0,
        0,
        0,
        0,
        0,
        0,
        0,
        0,
        0,
        0,
        0,
        35,
        60,
        48,
        64,
        48,
        64,
        48,
        64,
        48,
        64,
        40,
        50,
        0,
        0,
        0,
        0,
        0,
        0,
        0,
        0,
        0,
        0,
        0,
        0,
        0,
        0,
        0,
        0,
        0,
        0,
        0,
        0,
        0,
        0,
        0,
        0,
        0,
        0,
        0,
        0,
        0,
        19,
        4,
        18,
        0,
        0,
        0,
        0,
        0,
        0,
        0,
        0,
        0,
        0,
        0,
        0,
        0,
        19,
        12,
        32,
        16,
        32,
        16,
        24,
        4,
        20,
        2,
        0,
        0,
        0,
        0,
        0,
        0,
        0,
        0,
        0,
        0,
        0,
        0,
        0,
        0,
        0,
        0,
        0,
        0,
        0,
        0,
        0,
        0,
        0,
        0,
        0,
        0,
        0,
        0,
        0,
        0,
        0,
        0,
        0,
        0,
        0,
        0,
        0,
        0,
        0,
        0,
        0,
        0,
        0,
        0,
        0,
        0,
        0,
        35,
        52,
        36,
        52,
        36,
        50,
        0,
        0,
        0,
        0,
        0,
        0,
        0,
        0,
        0,
        0,
        0,
        0,
        0,
        0,
        0,
        0,
        0,
        0,
        0,
        0,
        0,
        0,
        0,
        0,
        0,
        0,
        0,
        0,
        0,
        0,
        0,
        0,
        0,
        0,
        0,
        0,
        0,
        0,
        0,
        0,
        0,
        0,
        0,
        0,
        0,
        0,
        0,
        0,
        0,
        0,
        0,
        0,
        0,
        0,
        0,
        0,
        0,
        0,
        0,
        0,
        0,
        0,
        0,
        0,
        0,
        0,
        0,
        0,
        0,
        0,
        0,
        0,
        0,
        0,
        0,
        0,
        0,
        0,
        0,
        0,
        0,
        0,
        0,
        0,
        0,
        0,
        0,
        0,
        0,
        0,
        0,
        0,
        0,
        0,
        0,
        0,
        0,
        0,
        0,
        0,
        0,
        0,
        0,
        0,
        0,
        0,
        0,
        0,
        0,
        0,
        0,
        0,
        0,
        0,
        0,
        0,
        0,
        0,
        0,
        0,
        0,
        0,
        0,
        0,
        0,
        0,
        0,
        0,
        0,
        0,
        0,
        0,
        0,
        0,
        0,
        0,
        0,
        0,
        0,
        0,
        0,
        0,
        0,
        0,
        0,
        0,
        0,
        0,
        0,
        0,
        0,
        0,
        0,
        0,
        0,
        0,
        0,
        0,
        0,
        0,
        0,
        0,
        0,
        0,
        0,
        0,
        0,
        0,
        0,
        0,
        0,
        0,
        0,
        0,
        0,
        0,
        0,
        0,
        0,
        0,
        0,
        0,
        0,
        0,
        0,
        0,
        0,
        0,
        0,
        0,
        0,
        0,
        0,
        0,
        0,
        0,
        0,
        0,
        0,
        0,
        0,
        0,
        0,
        0,
        0,
        0,
        0,
        0,
        0,
        0,
        0,
        0,
        0,
        0,
        0,
        0,
        0,
        0,
        0,
        0,
        0,
        0,
        0,
        0,
        0,
        0,
        0,
        0,
        0,
        0,
        0,
        0,
        0,
        0,
        0,
        0,
        0,
        0,
        0,
        0
      ],
      "offsetx": 32,
      "offsety": 32,
      "properties": [
        {
          "name": "collision",
          "type": "bool",
          "value": false
        }
      ]
    },
    {
      "id": 4,
      "name": "grass",
      "type": "tilelayer",
      "x": 0,
      "y": 0,
      "width": 56,
      "height": 36,
      "opacity": 1,
      "visible": true,
      "data": [
        0,
        0,
        0,
        0,
        0,
        0,
        0,
        0,
        0,
        0,
        0,
        0,
        0,
        0,
        0,
        0,
        0,
        0,
        0,
        0,
        0,
        0,
        0,
        0,
        0,
        0,
        0,
        0,
        0,
        0,
        0,
        0,
        0,
        0,
        0,
        0,
        0,
        0,
        0,
        0,
        0,
        0,
        0,
        0,
        0,
        0,
        0,
        0,
        0,
        0,
        0,
        0,
        0,
        0,
        0,
        0,
        0,
        0,
        0,
        0,
        0,
        0,
        0,
        0,
        0,
        0,
        0,
        0,
        0,
        0,
        0,
        0,
        0,
        0,
        0,
        0,
        0,
        0,
        0,
        0,
        0,
        0,
        0,
        0,
        0,
        0,
        0,
        0,
        0,
        0,
        0,
        0,
        0,
        0,
        0,
        0,
        0,
        0,
        0,
        0,
        0,
        0,
        0,
        0,
        0,
        0,
        0,
        0,
        0,
        0,
        0,
        0,
        0,
        0,
        0,
        0,
        0,
        0,
        0,
        0,
        0,
        0,
        0,
        0,
        0,
        0,
        0,
        0,
        0,
        0,
        0,
        0,
        0,
        0,
        0,
        0,
        0,
        0,
        0,
        0,
        0,
        0,
        0,
        0,
        0,
        0,
        0,
        0,
        0,
        0,
        0,
        0,
        0,
        0,
        0,
        0,
        0,
        0,
        0,
        0,
        0,
        0,
        0,
        0,
        0,
        0,
        0,
        0,
        0,
        0,
        0,
        0,
        0,
        0,
        0,
        0,
        0,
        0,
        0,
        0,
        0,
        0,
        0,
        0,
        0,
        0,
        0,
        0,
        0,
        0,
        0,
        0,
        0,
        0,
        0,
        0,
        0,
        0,
        0,
        0,
        0,
        0,
        0,
        0,
        0,
        0,
        0,
        0,
        0,
        0,
        0,
        0,
        0,
        0,
        0,
        0,
        0,
        0,
        0,
        0,
        0,
        0,
        0,
        0,
        0,
        0,
        0,
        0,
        0,
        0,
        0,
        0,
        0,
        0,
        0,
        0,
        0,
        0,
        0,
        0,
        0,
        0,
        0,
        0,
        0,
        0,
        0,
        0,
        0,
        0,
        0,
        0,
        0,
        89,
        77,
        93,
        77,
        93,
        77,
        93,
        69,
        0,
        0,
        0,
        0,
        0,
        0,
        0,
        0,
        0,
        0,
        0,
        0,
        0,
        0,
        0,
        0,
        0,
        0,
        0,
        0,
        0,
        0,
        0,
        0,
        0,
        0,
        0,
        0,
        0,
        0,
        0,
        0,
        0,
        0,
        0,
        0,
        0,
        0,
        0,
        0,
        0,
        0,
        0,
        0,
        0,
        105,
        125,
        109,
        127,
        112,
        128,
        112,
        128,
        112,
        128,
        110,
        117,
        0,
        0,
        0,
        0,
        0,
        0,
        0,
        0,
        0,
        0,
        0,
        0,
        0,
        0,
        0,
        0,
        0,
        0,
        0,
        0,
        0,
        0,
        0,
        0,
        0,
        0,
        0,
        0,
        0,
        0,
        0,
        0,
        0,
        0,
        0,
        0,
        0,
        0,
        0,
        0,
        0,
        89,
        77,
        93,
        79,
        96,
        80,
        96,
        80,
        96,
        80,
        96,
        80,
        96,
        80,
        94,
        69,
        0,
        0,
        0,
        0,
        0,
        0,
        0,
        0,
        0,
        0,
        0,
        0,
        0,
        0,
        0,
        0,
        0,
        0,
        0,
        0,
        0,
        0,
        0,
        0,
        0,
        0,
        0,
        0,
        0,
        0,
        0,
        0,
        0,
        0,
        0,
        0,
        0,
        0,
        121,
        109,
        127,
        112,
        128,
        112,
        128,
        112,
        128,
        112,
        128,
        112,
        128,
        112,
        128,
        112,
        128,
        110,
        117,
        0,
        0,
        0,
        0,
        0,
        0,
        0,
        0,
        0,
        0,
        0,
        0,
        0,
        0,
        0,
        0,
        0,
        0,
        0,
        0,
        0,
        0,
        0,
        0,
        0,
        0,
        0,
        0,
        0,
        0,
        73,
        93,
        77,
        93,
        77,
        93,
        77,
        95,
        80,
        96,
        80,
        96,
        80,
        96,
        80,
        96,
        80,
        96,
        80,
        96,
        80,
        96,
        80,
        96,
        80,
        94,
        77,
        93,
        69,
        0,
        0,
        0,
        0,
        0,
        0,
        0,
        0,
        0,
        0,
        0,
        0,
        0,
        0,
        0,
        0,
        0,
        0,
        0,
        0,
        0,
        0,
        0,
        0,
        0,
        105,
        125,
        111,
        128,
        112,
        128,
        112,
        128,
        112,
        128,
        112,
        128,
        112,
        128,
        112,
        128,
        112,
        128,
        112,
        128,
        112,
        128,
        112,
        128,
        112,
        128,
        112,
        128,
        112,
        128,
        110,
        117,
        0,
        0,
        0,
        0,
        0,
        0,
        0,
        0,
        0,
        0,
        0,
        0,
        0,
        0,
        0,
        0,
        0,
        0,
        0,
        0,
        0,
        0,
        73,
        93,
        79,
        96,
        80,
        96,
        80,
        96,
        80,
        96,
        80,
        96,
        80,
        96,
        80,
        96,
        80,
        96,
        80,
        96,
        80,
        96,
        80,
        96,
        80,
        96,
        80,
        96,
        80,
        96,
        80,
        96,
        80,
        86,
        0,
        0,
        0,
        0,
        0,
        0,
        0,
        0,
        0,
        0,
        0,
        0,
        0,
        0,
        0,
        0,
        0,
        0,
        0,
        0,
        0,
        121,
        111,
        128,
        112,
        128,
        112,
        128,
        112,
        128,
        112,
        128,
        112,
        128,
        112,
        128,
        112,
        128,
        112,
        128,
        112,
        128,
        112,
        128,
        112,
        128,
        112,
        128,
        112,
        128,
        112,
        128,
        112,
        128,
        112,
        126,
        101,
        0,
        0,
        0,
        0,
        0,
        0,
        0,
        0,
        0,
        0,
        0,
        0,
        0,
        0,
        0,
        0,
        0,
        0,
        0,
        73,
        95,
        80,
        96,
        80,
        96,
        80,
        96,
        80,
        96,
        80,
        96,
        80,
        96,
        80,
        96,
        80,
        96,
        80,
        96,
        80,
        96,
        80,
        96,
        80,
        96,
        80,
        96,
        80,
        96,
        80,
        96,
        80,
        96,
        80,
        96,
        70,
        0,
        0,
        0,
        0,
        0,
        0,
        0,
        0,
        0,
        0,
        0,
        0,
        0,
        0,
        0,
        0,
        0,
        0,
        121,
        111,
        128,
        112,
        128,
        112,
        128,
        112,
        128,
        112,
        128,
        112,
        128,
        112,
        128,
        112,
        128,
        112,
        128,
        112,
        128,
        112,
        128,
        112,
        128,
        112,
        128,
        112,
        128,
        112,
        128,
        112,
        128,
        112,
        128,
        112,
        128,
        102,
        0,
        0,
        0,
        0,
        0,
        0,
        0,
        0,
        0,
        0,
        0,
        0,
        0,
        0,
        0,
        0,
        0,
        73,
        95,
        80,
        96,
        80,
        96,
        80,
        96,
        80,
        96,
        80,
        96,
        80,
        96,
        80,
        96,
        80,
        96,
        80,
        96,
        80,
        96,
        80,
        96,
        80,
        96,
        80,
        96,
        80,
        96,
        80,
        96,
        80,
        96,
        80,
        96,
        80,
        96,
        70,
        0,
        0,
        0,
        0,
        0,
        0,
        0,
        0,
        0,
        0,
        0,
        0,
        0,
        0,
        0,
        0,
        121,
        111,
        128,
        112,
        128,
        112,
        128,
        112,
        128,
        112,
        128,
        112,
        128,
        112,
        128,
        112,
        128,
        112,
        128,
        112,
        128,
        112,
        128,
        112,
        128,
        112,
        128,
        112,
        128,
        112,
        128,
        112,
        128,
        112,
        128,
        112,
        128,
        112,
        128,
        110,
        117,
        0,
        0,
        0,
        0,
        0,
        0,
        0,
        0,
        0,
        0,
        0,
        0,
        0,
        0,
        0,
        91,
        80,
        96,
        80,
        96,
        80,
        96,
        80,
        96,
        80,
        96,
        80,
        96,
        80,
        96,
        80,
        96,
        80,
        96,
        80,
        96,
        80,
        96,
        80,
        96,
        80,
        96,
        80,
        96,
        80,
        96,
        80,
        96,
        80,
        96,
        80,
        96,
        80,
        96,
        80,
        86,
        0,
        0,
        0,
        0,
        0,
        0,
        0,
        0,
        0,
        0,
        0,
        0,
        0,
        0,
        0,
        123,
        112,
        128,
        112,
        128,
        112,
        128,
        112,
        128,
        112,
        128,
        112,
        128,
        112,
        128,
        112,
        128,
        112,
        128,
        112,
        128,
        112,
        128,
        112,
        128,
        112,
        128,
        112,
        128,
        112,
        128,
        112,
        128,
        112,
        128,
        112,
        128,
        112,
        128,
        112,
        118,
        0,
        0,
        0,
        0,
        0,
        0,
        0,
        0,
        0,
        0,
        0,
        0,
        0,
        0,
        0,
        91,
        80,
        96,
        80,
        96,
        80,
        96,
        80,
        96,
        80,
        96,
        80,
        96,
        80,
        96,
        80,
        96,
        80,
        96,
        80,
        96,
        80,
        96,
        80,
        96,
        80,
        96,
        80,
        96,
        80,
        96,
        80,
        96,
        80,
        96,
        80,
        96,
        80,
        96,
        72,
        82,
        0,
        0,
        0,
        0,
        0,
        0,
        0,
        0,
        0,
        0,
        0,
        0,
        0,
        0,
        0,
        123,
        112,
        128,
        112,
        128,
        112,
        128,
        112,
        128,
        112,
        128,
        112,
        128,
        112,
        128,
        112,
        128,
        112,
        128,
        112,
        128,
        112,
        128,
        112,
        128,
        112,
        128,
        112,
        128,
        112,
        128,
        112,
        128,
        112,
        128,
        112,
        128,
        112,
        128,
        102,
        0,
        0,
        0,
        0,
        0,
        0,
        0,
        0,
        0,
        0,
        0,
        0,
        0,
        0,
        0,
        0,
        91,
        80,
        96,
        80,
        96,
        80,
        96,
        80,
        96,
        80,
        96,
        80,
        96,
        80,
        96,
        80,
        96,
        80,
        96,
        80,
        96,
        80,
        96,
        80,
        96,
        80,
        96,
        80,
        96,
        80,
        96,
        80,
        96,
        80,
        96,
        80,
        96,
        80,
        88,
        66,
        0,
        0,
        0,
        0,
        0,
        0,
        0,
        0,
        0,
        0,
        0,
        0,
        0,
        0,
        0,
        0,
        115,
        108,
        128,
        112,
        128,
        112,
        128,
        112,
        128,
        112,
        128,
        112,
        128,
        112,
        128,
        112,
        128,
        112,
        128,
        112,
        128,
        112,
        128,
        112,
        128,
        112,
        128,
        112,
        128,
        112,
        128,
        112,
        128,
        112,
        128,
        112,
        128,
        104,
        114,
        0,
        0,
        0,
        0,
        0,
        0,
        0,
        0,
        0,
        0,
        0,
        0,
        0,
        0,
        0,
        0,
        0,
        0,
        67,
        92,
        80,
        96,
        80,
        96,
        80,
        96,
        80,
        96,
        80,
        96,
        80,
        96,
        80,
        96,
        80,
        96,
        80,
        96,
        80,
        96,
        80,
        96,
        80,
        96,
        80,
        96,
        80,
        96,
        80,
        96,
        80,
        96,
        80,
        88,
        66,
        0,
        0,
        0,
        0,
        0,
        0,
        0,
        0,
        0,
        0,
        0,
        0,
        0,
        0,
        0,
        0,
        0,
        0,
        0,
        0,
        115,
        108,
        128,
        112,
        128,
        112,
        128,
        112,
        128,
        112,
        128,
        112,
        128,
        112,
        128,
        112,
        128,
        112,
        128,
        112,
        128,
        112,
        128,
        112,
        128,
        112,
        128,
        112,
        128,
        112,
        128,
        112,
        128,
        112,
        118,
        0,
        0,
        0,
        0,
        0,
        0,
        0,
        0,
        0,
        0,
        0,
        0,
        0,
        0,
        0,
        0,
        0,
        0,
        0,
        0,
        0,
        0,
        67,
        84,
        76,
        96,
        80,
        96,
        80,
        96,
        80,
        96,
        80,
        96,
        80,
        96,
        80,
        96,
        80,
        96,
        80,
        96,
        80,
        96,
        80,
        96,
        80,
        96,
        80,
        96,
        80,
        96,
        80,
        96,
        80,
        86,
        0,
        0,
        0,
        0,
        0,
        0,
        0,
        0,
        0,
        0,
        0,
        0,
        0,
        0,
        0,
        0,
        0,
        0,
        0,
        0,
        0,
        0,
        0,
        0,
        99,
        116,
        100,
        124,
        112,
        128,
        112,
        128,
        112,
        128,
        112,
        128,
        112,
        128,
        112,
        128,
        112,
        128,
        112,
        128,
        112,
        128,
        112,
        128,
        112,
        128,
        112,
        128,
        112,
        128,
        112,
        118,
        0,
        0,
        0,
        0,
        0,
        0,
        0,
        0,
        0,
        0,
        0,
        0,
        0,
        0,
        0,
        0,
        0,
        0,
        0,
        0,
        0,
        0,
        0,
        0,
        0,
        0,
        0,
        83,
        68,
        84,
        76,
        96,
        80,
        96,
        80,
        96,
        80,
        96,
        80,
        88,
        68,
        84,
        68,
        84,
        68,
        84,
        76,
        96,
        80,
        96,
        80,
        96,
        80,
        96,
        80,
        86,
        0,
        0,
        0,
        0,
        0,
        0,
        0,
        0,
        0,
        0,
        0,
        0,
        0,
        0,
        0,
        0,
        0,
        0,
        0,
        0,
        0,
        0,
        0,
        0,
        0,
        0,
        0,
        0,
        0,
        0,
        99,
        124,
        112,
        120,
        100,
        116,
        100,
        116,
        100,
        114,
        0,
        0,
        0,
        0,
        0,
        0,
        99,
        124,
        112,
        128,
        112,
        128,
        112,
        128,
        112,
        126,
        101,
        0,
        0,
        0,
        0,
        0,
        0,
        0,
        0,
        0,
        0,
        0,
        0,
        0,
        0,
        0,
        0,
        0,
        0,
        0,
        0,
        0,
        0,
        0,
        0,
        0,
        0,
        0,
        0,
        0,
        0,
        83,
        68,
        82,
        0,
        0,
        0,
        0,
        0,
        0,
        0,
        0,
        0,
        0,
        0,
        0,
        0,
        83,
        76,
        96,
        80,
        96,
        80,
        96,
        80,
        88,
        66,
        0,
        0,
        0,
        0,
        0,
        0,
        0,
        0,
        0,
        0,
        0,
        0,
        0,
        0,
        0,
        0,
        0,
        0,
        0,
        0,
        0,
        0,
        0,
        0,
        0,
        0,
        0,
        0,
        0,
        0,
        0,
        0,
        0,
        0,
        0,
        0,
        0,
        0,
        0,
        0,
        0,
        0,
        0,
        0,
        0,
        0,
        0,
        99,
        124,
        112,
        128,
        104,
        116,
        100,
        114,
        0,
        0,
        0,
        0,
        0,
        0,
        0,
        0,
        0,
        0,
        0,
        0,
        0,
        0,
        0,
        0,
        0,
        0,
        0,
        0,
        0,
        0,
        0,
        0,
        0,
        0,
        0,
        0,
        0,
        0,
        0,
        0,
        0,
        0,
        0,
        0,
        0,
        0,
        0,
        0,
        0,
        0,
        0,
        0,
        0,
        0,
        0,
        0,
        0,
        83,
        68,
        84,
        66,
        0,
        0,
        0,
        0,
        0,
        0,
        0,
        0,
        0,
        0,
        0,
        0,
        0,
        0,
        0,
        0,
        0,
        0,
        0,
        0,
        0,
        0,
        0,
        0,
        0,
        0,
        0,
        0,
        0,
        0,
        0,
        0,
        0,
        0,
        0,
        0,
        0,
        0,
        0,
        0,
        0,
        0,
        0,
        0,
        0,
        0,
        0,
        0,
        0,
        0,
        0,
        0,
        0,
        0,
        0,
        0,
        0,
        0,
        0,
        0,
        0,
        0,
        0,
        0,
        0,
        0,
        0,
        0,
        0,
        0,
        0,
        0,
        0,
        0,
        0,
        0,
        0,
        0,
        0,
        0,
        0,
        0,
        0,
        0,
        0,
        0,
        0,
        0,
        0,
        0,
        0,
        0,
        0,
        0,
        0,
        0,
        0,
        0,
        0,
        0,
        0,
        0,
        0,
        0,
        0,
        0,
        0,
        0,
        0,
        0,
        0,
        0,
        0,
        0,
        0,
        0,
        0,
        0,
        0,
        0,
        0,
        0,
        0,
        0,
        0,
        0,
        0,
        0,
        0,
        0,
        0,
        0,
        0,
        0,
        0,
        0,
        0,
        0,
        0,
        0,
        0,
        0,
        0,
        0,
        0,
        0,
        0,
        0,
        0,
        0,
        0,
        0,
        0,
        0,
        0,
        0,
        0,
        0,
        0,
        0,
        0,
        0,
        0,
        0,
        0,
        0,
        0,
        0,
        0,
        0,
        0,
        0,
        0,
        0,
        0,
        0,
        0,
        0,
        0,
        0,
        0,
        0,
        0,
        0,
        0,
        0,
        0,
        0,
        0,
        0,
        0,
        0,
        0,
        0,
        0,
        0,
        0,
        0,
        0,
        0,
        0,
        0,
        0,
        0,
        0,
        0,
        0,
        0,
        0,
        0,
        0,
        0,
        0,
        0,
        0,
        0,
        0,
        0,
        0,
        0,
        0,
        0,
        0,
        0,
        0,
        0,
        0,
        0,
        0,
        0,
        0,
        0,
        0,
        0,
        0,
        0,
        0,
        0,
        0,
        0,
        0,
        0,
        0,
        0,
        0,
        0,
        0,
        0,
        0,
        0,
        0,
        0,
        0,
        0,
        0,
        0,
        0,
        0,
        0,
        0,
        0,
        0,
        0,
        0,
        0,
        0,
        0,
        0,
        0,
        0,
        0,
        0,
        0,
        0,
        0,
        0,
        0,
        0,
        0,
        0,
        0,
        0,
        0,
        0,
        0,
        0,
        0,
        0,
        0,
        0,
        0,
        0,
        0,
        0,
        0,
        0,
        0
      ],
      "offsetx": 32,
      "offsety": 32,
      "properties": [
        {
          "name": "collision",
          "type": "bool",
          "value": false
        }
      ]
    },
    {
      "id": 5,
      "name": "path",
      "type": "tilelayer",
      "x": 0,
      "y": 0,
      "width": 56,
      "height": 36,
      "opacity": 1,
      "visible": true,
      "data": [
        0,
        0,
        0,
        0,
        0,
        0,
        0,
        0,
        0,
        0,
        0,
        0,
        0,
        0,
        0,
        0,
        0,
        0,
        0,
        0,
        0,
        0,
        0,
        0,
        0,
        0,
        0,
        0,
        0,
        0,
        0,
        0,
        0,
        0,
        0,
        0,
        0,
        0,
        0,
        0,
        0,
        0,
        0,
        0,
        0,
        0,
        0,
        0,
        0,
        0,
        0,
        0,
        0,
        0,
        0,
        0,
        0,
        0,
        0,
        0,
        0,
        0,
        0,
        0,
        0,
        0,
        0,
        0,
        0,
        0,
        0,
        0,
        0,
        0,
        0,
        0,
        0,
        0,
        0,
        0,
        0,
        0,
        0,
        0,
        0,
        0,
        0,
        0,
        0,
        0,
        0,
        0,
        0,
        0,
        0,
        0,
        0,
        0,
        0,
        0,
        0,
        0,
        0,
        0,
        0,
        0,
        0,
        0,
        0,
        0,
        0,
        0,
        0,
        0,
        0,
        0,
        0,
        0,
        0,
        0,
        0,
        0,
        0,
        0,
        0,
        0,
        0,
        0,
        0,
        0,
        0,
        0,
        0,
        0,
        0,
        0,
        0,
        0,
        0,
        0,
        0,
        0,
        0,
        0,
        0,
        0,
        0,
        0,
        0,
        0,
        0,
        0,
        0,
        0,
        0,
        0,
        0,
        0,
        0,
        0,
        0,
        0,
        0,
        0,
        0,
        0,
        0,
        0,
        0,
        0,
        0,
        0,
        0,
        0,
        0,
        0,
        0,
        0,
        0,
        0,
        0,
        0,
        0,
        0,
        0,
        0,
        0,
        0,
        0,
        0,
        0,
        0,
        0,
        0,
        0,
        0,
        0,
        0,
        0,
        0,
        0,
        0,
        0,
        0,
        0,
        0,
        0,
        0,
        0,
        0,
        0,
        0,
        0,
        0,
        0,
        0,
        0,
        0,
        0,
        0,
        0,
        0,
        0,
        0,
        0,
        0,
        0,
        0,
        0,
        0,
        0,
        0,
        0,
        0,
        0,
        0,
        0,
        0,
        0,
        0,
        0,
        0,
        0,
        0,
        0,
        0,
        0,
        0,
        0,
        0,
        0,
        0,
        0,
        0,
        0,
        0,
        0,
        0,
        0,
        0,
        0,
        0,
        0,
        0,
        0,
        0,
        0,
        0,
        0,
        0,
        0,
        0,
        0,
        0,
        0,
        0,
        0,
        0,
        0,
        0,
        0,
        0,
        0,
        0,
        0,
        0,
        0,
        0,
        0,
        0,
        0,
        0,
        0,
        0,
        0,
        0,
        0,
        0,
        0,
        0,
        0,
        0,
        0,
        0,
        0,
        0,
        0,
        249,
        229,
        0,
        0,
        0,
        0,
        0,
        0,
        0,
        0,
        0,
        0,
        0,
        0,
        0,
        0,
        0,
        0,
        0,
        0,
        0,
        0,
        0,
        0,
        0,
        0,
        0,
        0,
        0,
        0,
        0,
        0,
        0,
        0,
        0,
        0,
        0,
        0,
        0,
        0,
        0,
        0,
        0,
        0,
        0,
        0,
        0,
        0,
        0,
        0,
        0,
        0,
        0,
        0,
        0,
        0,
        219,
        198,
        0,
        0,
        0,
        0,
        0,
        0,
        0,
        0,
        0,
        0,
        0,
        0,
        0,
        0,
        0,
        0,
        0,
        0,
        0,
        0,
        0,
        0,
        0,
        0,
        0,
        0,
        0,
        0,
        0,
        0,
        0,
        0,
        0,
        0,
        0,
        0,
        0,
        0,
        0,
        0,
        0,
        0,
        0,
        0,
        0,
        0,
        0,
        0,
        0,
        0,
        0,
        0,
        0,
        0,
        251,
        230,
        0,
        0,
        0,
        0,
        0,
        0,
        0,
        0,
        0,
        0,
        0,
        0,
        0,
        0,
        0,
        0,
        0,
        0,
        0,
        0,
        0,
        0,
        0,
        0,
        0,
        0,
        0,
        0,
        0,
        0,
        0,
        0,
        0,
        0,
        0,
        0,
        0,
        0,
        0,
        0,
        0,
        0,
        0,
        0,
        0,
        0,
        0,
        0,
        0,
        0,
        0,
        0,
        0,
        0,
        219,
        198,
        0,
        0,
        0,
        0,
        0,
        0,
        0,
        0,
        0,
        0,
        0,
        0,
        0,
        0,
        0,
        0,
        0,
        0,
        0,
        0,
        0,
        0,
        0,
        0,
        0,
        0,
        0,
        0,
        0,
        0,
        0,
        0,
        0,
        0,
        0,
        0,
        0,
        0,
        0,
        0,
        0,
        0,
        0,
        0,
        0,
        0,
        0,
        0,
        0,
        0,
        0,
        0,
        0,
        0,
        251,
        230,
        0,
        0,
        0,
        0,
        0,
        0,
        0,
        0,
        0,
        0,
        0,
        0,
        0,
        0,
        0,
        0,
        0,
        0,
        0,
        0,
        0,
        0,
        0,
        0,
        0,
        0,
        0,
        0,
        0,
        0,
        0,
        0,
        0,
        0,
        0,
        0,
        0,
        0,
        0,
        0,
        0,
        0,
        0,
        0,
        0,
        0,
        0,
        0,
        0,
        0,
        0,
        0,
        0,
        0,
        219,
        198,
        0,
        0,
        0,
        0,
        0,
        0,
        0,
        0,
        0,
        0,
        0,
        0,
        0,
        0,
        0,
        0,
        0,
        0,
        0,
        0,
        0,
        0,
        0,
        0,
        0,
        0,
        0,
        0,
        0,
        0,
        0,
        0,
        0,
        0,
        0,
        0,
        0,
        0,
        0,
        0,
        0,
        0,
        0,
        0,
        0,
        0,
        0,
        0,
        0,
        0,
        0,
        0,
        0,
        0,
        251,
        230,
        0,
        0,
        0,
        0,
        0,
        0,
        0,
        0,
        0,
        0,
        0,
        0,
        0,
        0,
        0,
        0,
        0,
        0,
        0,
        0,
        0,
        0,
        0,
        0,
        0,
        0,
        0,
        0,
        0,
        0,
        0,
        0,
        0,
        0,
        0,
        0,
        0,
        0,
        0,
        0,
        0,
        0,
        0,
        0,
        0,
        0,
        0,
        0,
        0,
        0,
        0,
        0,
        0,
        0,
        219,
        198,
        0,
        0,
        0,
        0,
        0,
        0,
        0,
        0,
        0,
        0,
        0,
        0,
        0,
        0,
        0,
        0,
        0,
        0,
        0,
        0,
        0,
        0,
        0,
        0,
        0,
        0,
        0,
        0,
        0,
        0,
        0,
        0,
        0,
        0,
        0,
        0,
        0,
        0,
        0,
        0,
        0,
        0,
        0,
        0,
        0,
        0,
        0,
        0,
        0,
        0,
        0,
        0,
        0,
        0,
        251,
        230,
        0,
        0,
        0,
        0,
        0,
        0,
        0,
        0,
        0,
        0,
        0,
        0,
        0,
        0,
        0,
        0,
        0,
        0,
        0,
        0,
        0,
        0,
        0,
        0,
        0,
        0,
        0,
        0,
        0,
        0,
        0,
        0,
        0,
        0,
        0,
        0,
        0,
        0,
        0,
        0,
        0,
        0,
        0,
        0,
        0,
        0,
        0,
        0,
        0,
        0,
        0,
        0,
        0,
        0,
        219,
        198,
        0,
        0,
        0,
        0,
        0,
        0,
        0,
        0,
        0,
        0,
        0,
        0,
        0,
        0,
        0,
        0,
        0,
        0,
        0,
        0,
        0,
        0,
        0,
        0,
        0,
        0,
        0,
        0,
        0,
        0,
        0,
        0,
        0,
        0,
        0,
        0,
        0,
        0,
        0,
        0,
        0,
        0,
        0,
        0,
        0,
        0,
        0,
        0,
        0,
        0,
        0,
        0,
        0,
        0,
        251,
        230,
        0,
        0,
        0,
        0,
        0,
        0,
        0,
        0,
        0,
        0,
        0,
        0,
        0,
        0,
        0,
        0,
        0,
        0,
        0,
        0,
        0,
        0,
        0,
        0,
        0,
        0,
        0,
        0,
        0,
        0,
        0,
        0,
        0,
        0,
        0,
        0,
        0,
        0,
        0,
        0,
        0,
        0,
        0,
        0,
        0,
        0,
        0,
        0,
        0,
        0,
        0,
        0,
        0,
        201,
        223,
        206,
        213,
        0,
        0,
        0,
        0,
        0,
        0,
        0,
        0,
        0,
        0,
        0,
        0,
        0,
        0,
        0,
        0,
        0,
        0,
        0,
        0,
        0,
        0,
        0,
        0,
        0,
        0,
        0,
        0,
        0,
        0,
        0,
        0,
        0,
        0,
        0,
        0,
        0,
        0,
        0,
        0,
        0,
        0,
        0,
        0,
        0,
        0,
        0,
        0,
        0,
        0,
        0,
        0,
        235,
        256,
        240,
        246,
        0,
        0,
        0,
        0,
        0,
        0,
        0,
        0,
        0,
        0,
        0,
        0,
        0,
        0,
        0,
        0,
        0,
        0,
        0,
        0,
        0,
        0,
        0,
        0,
        0,
        0,
        0,
        0,
        0,
        0,
        0,
        0,
        0,
        0,
        0,
        0,
        0,
        0,
        0,
        0,
        0,
        0,
        0,
        0,
        0,
        0,
        0,
        0,
        0,
        0,
        0,
        0,
        203,
        224,
        208,
        214,
        0,
        0,
        0,
        0,
        0,
        0,
        0,
        0,
        0,
        0,
        0,
        0,
        0,
        0,
        0,
        0,
        0,
        0,
        0,
        0,
        0,
        0,
        0,
        0,
        0,
        0,
        0,
        0,
        0,
        0,
        0,
        0,
        0,
        0,
        0,
        0,
        0,
        0,
        0,
        0,
        0,
        0,
        0,
        0,
        0,
        0,
        0,
        0,
        0,
        0,
        0,
        0,
        235,
        256,
        240,
        254,
        237,
        245,
        0,
        0,
        0,
        0,
        0,
        0,
        0,
        0,
        0,
        0,
        0,
        0,
        0,
        0,
        0,
        0,
        0,
        0,
        0,
        0,
        0,
        0,
        0,
        0,
        0,
        0,
        0,
        0,
        0,
        0,
        0,
        0,
        0,
        0,
        0,
        0,
        0,
        0,
        0,
        0,
        0,
        0,
        0,
        0,
        0,
        0,
        0,
        0,
        0,
        0,
        203,
        216,
        196,
        212,
        204,
        222,
        197,
        0,
        0,
        0,
        0,
        0,
        0,
        0,
        0,
        0,
        0,
        0,
        0,
        0,
        0,
        0,
        0,
        0,
        0,
        0,
        0,
        0,
        0,
        0,
        0,
        0,
        0,
        0,
        0,
        0,
        0,
        0,
        0,
        0,
        0,
        0,
        0,
        0,
        0,
        0,
        0,
        0,
        0,
        0,
        0,
        0,
        0,
        0,
        0,
        0,
        235,
        246,
        0,
        0,
        227,
        252,
        238,
        245,
        0,
        0,
        0,
        0,
        0,
        0,
        0,
        0,
        0,
        0,
        0,
        0,
        0,
        0,
        0,
        0,
        0,
        0,
        0,
        0,
        0,
        0,
        0,
        0,
        0,
        0,
        0,
        0,
        0,
        0,
        0,
        0,
        0,
        0,
        0,
        0,
        0,
        0,
        0,
        0,
        0,
        0,
        0,
        0,
        0,
        0,
        0,
        0,
        203,
        214,
        0,
        0,
        0,
        211,
        204,
        214,
        0,
        0,
        0,
        0,
        0,
        0,
        0,
        0,
        0,
        0,
        0,
        0,
        0,
        0,
        0,
        0,
        0,
        0,
        0,
        0,
        0,
        0,
        0,
        0,
        0,
        0,
        0,
        0,
        0,
        0,
        0,
        0,
        0,
        0,
        0,
        0,
        0,
        0,
        0,
        0,
        0,
        0,
        0,
        0,
        0,
        0,
        233,
        253,
        239,
        246,
        0,
        0,
        0,
        0,
        235,
        246,
        0,
        0,
        0,
        0,
        0,
        0,
        0,
        0,
        0,
        0,
        0,
        0,
        0,
        0,
        0,
        0,
        0,
        0,
        0,
        0,
        0,
        0,
        0,
        0,
        0,
        0,
        0,
        0,
        0,
        0,
        0,
        0,
        0,
        0,
        0,
        217,
        205,
        221,
        205,
        221,
        205,
        221,
        205,
        221,
        205,
        221,
        207,
        216,
        196,
        210,
        0,
        0,
        0,
        0,
        203,
        222,
        205,
        221,
        205,
        221,
        197,
        0,
        0,
        0,
        0,
        0,
        0,
        0,
        0,
        0,
        0,
        0,
        0,
        0,
        0,
        0,
        0,
        0,
        0,
        0,
        0,
        0,
        0,
        0,
        0,
        0,
        0,
        0,
        0,
        0,
        0,
        251,
        232,
        244,
        228,
        244,
        228,
        244,
        228,
        244,
        228,
        244,
        228,
        242,
        0,
        0,
        0,
        0,
        0,
        0,
        227,
        244,
        228,
        244,
        228,
        252,
        238,
        253,
        237,
        245,
        0,
        0,
        0,
        0,
        0,
        0,
        0,
        0,
        0,
        0,
        0,
        0,
        0,
        0,
        0,
        0,
        0,
        0,
        0,
        0,
        0,
        0,
        0,
        0,
        0,
        0,
        0,
        211,
        194,
        0,
        0,
        0,
        0,
        0,
        0,
        0,
        0,
        0,
        0,
        0,
        0,
        0,
        0,
        0,
        0,
        0,
        0,
        0,
        0,
        0,
        0,
        211,
        196,
        212,
        196,
        210,
        0,
        0,
        0,
        0,
        0,
        0,
        0,
        0,
        0,
        0,
        0,
        0,
        0,
        0,
        0,
        0,
        0,
        0,
        0,
        0,
        0,
        0,
        0,
        0,
        0,
        0,
        0,
        0,
        0,
        0,
        0,
        0,
        0,
        0,
        0,
        0,
        0,
        0,
        0,
        0,
        0,
        0,
        0,
        0,
        0,
        0,
        0,
        0,
        0,
        0,
        0,
        0,
        0,
        0,
        0,
        0,
        0,
        0,
        0,
        0,
        0,
        0,
        0,
        0,
        0,
        0,
        0,
        0,
        0,
        0,
        0,
        0,
        0,
        0,
        0,
        0,
        0,
        0,
        0,
        0,
        0,
        0,
        0,
        0,
        0,
        0,
        0,
        0,
        0,
        0,
        0,
        0,
        0,
        0,
        0,
        0,
        0,
        0,
        0,
        0,
        0,
        0,
        0,
        0,
        0,
        0,
        0,
        0,
        0,
        0,
        0,
        0,
        0,
        0,
        0,
        0,
        0,
        0,
        0,
        0,
        0,
        0,
        0,
        0,
        0,
        0,
        0,
        0,
        0,
        0,
        0,
        0,
        0,
        0,
        0,
        0,
        0,
        0,
        0,
        0,
        0,
        0,
        0,
        0,
        0,
        0,
        0,
        0,
        0,
        0,
        0,
        0,
        0,
        0,
        0,
        0,
        0,
        0,
        0,
        0,
        0,
        0,
        0,
        0,
        0,
        0,
        0,
        0,
        0,
        0,
        0,
        0,
        0,
        0,
        0,
        0,
        0,
        0,
        0,
        0,
        0,
        0,
        0,
        0,
        0,
        0,
        0,
        0,
        0,
        0,
        0,
        0,
        0,
        0,
        0,
        0,
        0,
        0,
        0,
        0,
        0,
        0,
        0,
        0,
        0,
        0,
        0,
        0,
        0,
        0,
        0,
        0,
        0,
        0,
        0,
        0,
        0,
        0,
        0,
        0,
        0,
        0,
        0,
        0,
        0,
        0,
        0,
        0,
        0,
        0,
        0,
        0,
        0,
        0,
        0,
        0,
        0,
        0,
        0,
        0,
        0,
        0,
        0,
        0,
        0,
        0,
        0,
        0,
        0,
        0,
        0,
        0,
        0,
        0,
        0,
        0,
        0,
        0,
        0,
        0,
        0,
        0,
        0,
        0,
        0,
        0,
        0,
        0,
        0,
        0,
        0,
        0,
        0,
        0,
        0,
        0,
        0,
        0,
        0,
        0,
        0,
        0,
        0,
        0,
        0,
        0,
        0,
        0,
        0,
        0,
        0,
        0,
        0,
        0,
        0,
        0,
        0,
        0,
        0,
        0,
        0,
        0,
        0,
        0,
        0,
        0,
        0,
        0,
        0,
        0,
        0,
        0,
        0,
        0,
        0,
        0,
        0,
        0,
        0,
        0,
        0,
        0,
        0,
        0,
        0,
        0,
        0,
        0,
        0,
        0,
        0,
        0,
        0,
        0,
        0,
        0,
        0,
        0,
        0,
        0,
        0,
        0,
        0,
        0,
        0,
        0,
        0,
        0,
        0,
        0,
        0,
        0,
        0,
        0,
        0,
        0,
        0,
        0,
        0,
        0,
        0,
        0,
        0,
        0,
        0,
        0,
        0,
        0,
        0,
        0,
        0,
        0,
        0,
        0,
        0,
        0,
        0,
        0,
        0,
        0,
        0,
        0,
        0,
        0,
        0,
        0,
        0,
        0,
        0,
        0,
        0,
        0,
        0,
        0,
        0,
        0,
        0,
        0,
        0,
        0,
        0,
        0,
        0,
        0,
        0,
        0,
        0,
        0,
        0,
        0,
        0,
        0,
        0,
        0,
        0,
        0,
        0,
        0,
        0,
        0,
        0,
        0,
        0,
        0,
        0,
        0,
        0,
        0,
        0,
        0,
        0,
        0,
        0,
        0,
        0,
        0,
        0,
        0,
        0,
        0,
        0,
        0,
        0,
        0,
        0,
        0,
        0,
        0,
        0,
        0,
        0,
        0,
        0,
        0,
        0,
        0,
        0,
        0,
        0,
        0,
        0,
        0,
        0,
        0,
        0,
        0,
        0,
        0,
        0,
        0,
        0,
        0,
        0,
        0,
        0,
        0,
        0,
        0,
        0,
        0,
        0,
        0,
        0,
        0,
        0,
        0,
        0,
        0,
        0,
        0,
        0,
        0,
        0,
        0,
        0,
        0,
        0,
        0,
        0,
        0,
        0,
        0,
        0,
        0,
        0,
        0,
        0,
        0,
        0,
        0,
        0,
        0,
        0,
        0,
        0,
        0,
        0,
        0
      ],
      "offsetx": 32,
      "offsety": 32,
      "properties": [
        {
          "name": "collision",
          "type": "bool",
          "value": false
        }
      ]
    },
    {
      "id": 6,
      "name": "shadow",
      "type": "tilelayer",
      "x": 0,
      "y": 0,
      "width": 56,
      "height": 36,
      "opacity": 1,
      "visible": true,
      "data": [
        0,
        0,
        0,
        0,
        0,
        0,
        0,
        0,
        0,
        0,
        0,
        0,
        0,
        0,
        0,
        0,
        0,
        0,
        0,
        0,
        0,
        0,
        0,
        0,
        0,
        0,
        0,
        0,
        0,
        0,
        0,
        0,
        0,
        0,
        0,
        0,
        0,
        0,
        0,
        0,
        0,
        0,
        0,
        0,
        0,
        0,
        0,
        0,
        0,
        0,
        0,
        0,
        0,
        0,
        0,
        0,
        0,
        0,
        0,
        0,
        0,
        0,
        0,
        0,
        0,
        0,
        0,
        0,
        0,
        0,
        0,
        0,
        0,
        0,
        0,
        0,
        0,
        0,
        0,
        0,
        0,
        0,
        0,
        0,
        0,
        0,
        0,
        0,
        0,
        0,
        0,
        0,
        0,
        0,
        0,
        0,
        0,
        0,
        0,
        0,
        0,
        0,
        0,
        0,
        0,
        0,
        0,
        0,
        0,
        0,
        0,
        0,
        0,
        0,
        0,
        0,
        0,
        0,
        0,
        0,
        0,
        0,
        0,
        0,
        0,
        0,
        0,
        0,
        0,
        0,
        0,
        0,
        0,
        0,
        0,
        0,
        0,
        0,
        0,
        0,
        0,
        0,
        0,
        0,
        0,
        0,
        0,
        0,
        0,
        0,
        0,
        0,
        0,
        0,
        0,
        0,
        0,
        0,
        0,
        0,
        0,
        0,
        0,
        0,
        0,
        0,
        0,
        0,
        0,
        0,
        0,
        0,
        0,
        0,
        0,
        0,
        0,
        0,
        0,
        0,
        0,
        0,
        0,
        0,
        0,
        0,
        0,
        0,
        0,
        0,
        0,
        0,
        0,
        0,
        0,
        0,
        0,
        0,
        0,
        0,
        0,
        0,
        0,
        0,
        0,
        0,
        0,
        0,
        0,
        0,
        0,
        0,
        0,
        0,
        0,
        0,
        0,
        0,
        0,
        0,
        0,
        0,
        0,
        0,
        0,
        0,
        0,
        0,
        0,
        0,
        0,
        0,
        0,
        0,
        0,
        0,
        0,
        0,
        0,
        0,
        0,
        0,
        0,
        0,
        0,
        0,
        0,
        0,
        0,
        0,
        0,
        0,
        0,
        0,
        0,
        0,
        0,
        0,
        0,
        0,
        0,
        0,
        0,
        0,
        0,
        0,
        0,
        0,
        0,
        0,
        0,
        0,
        0,
        0,
        0,
        0,
        0,
        0,
        0,
        0,
        0,
        0,
        0,
        0,
        0,
        0,
        0,
        0,
        0,
        0,
        0,
        0,
        0,
        0,
        0,
        0,
        0,
        0,
        0,
        0,
        0,
        0,
        0,
        0,
        0,
        0,
        0,
        0,
        0,
        0,
        0,
        0,
        0,
        0,
        0,
        0,
        0,
        0,
        0,
        0,
        0,
        0,
        0,
        0,
        0,
        0,
        0,
        0,
        0,
        0,
        0,
        0,
        0,
        0,
        0,
        0,
        0,
        0,
        0,
        0,
        0,
        0,
        0,
        0,
        0,
        0,
        0,
        0,
        0,
        0,
        0,
        0,
        0,
        0,
        0,
        0,
        0,
        0,
        0,
        0,
        0,
        0,
        0,
        0,
        0,
        0,
        0,
        0,
        0,
        0,
        0,
        0,
        0,
        0,
        0,
        0,
        0,
        0,
        0,
        0,
        0,
        0,
        0,
        0,
        0,
        0,
        0,
        0,
        0,
        0,
        0,
        0,
        0,
        0,
        0,
        0,
        0,
        0,
        0,
        0,
        0,
        0,
        0,
        0,
        0,
        0,
        0,
        0,
        0,
        0,
        0,
        0,
        0,
        0,
        0,
        0,
        0,
        0,
        0,
        0,
        0,
        0,
        0,
        0,
        0,
        0,
        0,
        0,
        0,
        0,
        0,
        0,
        0,
        0,
        0,
        0,
        0,
        0,
        0,
        0,
        0,
        0,
        0,
        0,
        0,
        0,
        0,
        0,
        0,
        0,
        0,
        0,
        0,
        0,
        0,
        0,
        0,
        0,
        0,
        0,
        0,
        0,
        0,
        0,
        0,
        0,
        0,
        0,
        0,
        0,
        0,
        0,
        0,
        0,
        0,
        0,
        0,
        0,
        0,
        0,
        329,
        333,
        325,
        0,
        0,
        0,
        0,
        0,
        0,
        0,
        0,
        0,
        0,
        0,
        0,
        0,
        0,
        0,
        0,
        0,
        0,
        0,
        0,
        0,
        0,
        0,
        0,
        0,
        0,
        0,
        0,
        0,
        0,
        0,
        0,
        0,
        0,
        0,
        0,
        0,
        0,
        0,
        0,
        0,
        0,
        0,
        0,
        0,
        0,
        0,
        0,
        0,
        0,
        0,
        0,
        329,
        335,
        336,
        334,
        325,
        0,
        0,
        0,
        0,
        0,
        0,
        0,
        0,
        0,
        0,
        0,
        0,
        0,
        0,
        0,
        0,
        0,
        0,
        0,
        0,
        0,
        0,
        0,
        0,
        0,
        0,
        0,
        0,
        0,
        0,
        0,
        0,
        0,
        0,
        0,
        0,
        0,
        0,
        0,
        0,
        0,
        0,
        0,
        0,
        0,
        0,
        0,
        0,
        0,
        0,
        329,
        335,
        336,
        336,
        336,
        334,
        325,
        0,
        0,
        0,
        0,
        0,
        0,
        0,
        0,
        0,
        0,
        0,
        0,
        0,
        0,
        0,
        0,
        0,
        0,
        0,
        0,
        0,
        0,
        0,
        0,
        0,
        0,
        0,
        0,
        0,
        0,
        0,
        0,
        0,
        0,
        0,
        0,
        0,
        0,
        0,
        0,
        0,
        0,
        0,
        0,
        0,
        0,
        0,
        0,
        0,
        331,
        336,
        336,
        336,
        336,
        336,
        334,
        333,
        333,
        325,
        0,
        0,
        0,
        0,
        0,
        0,
        0,
        0,
        0,
        0,
        0,
        0,
        0,
        0,
        0,
        0,
        0,
        0,
        0,
        0,
        0,
        0,
        0,
        0,
        0,
        0,
        0,
        0,
        0,
        0,
        0,
        0,
        0,
        0,
        0,
        0,
        0,
        0,
        0,
        0,
        0,
        0,
        0,
        0,
        0,
        0,
        331,
        336,
        336,
        336,
        336,
        336,
        336,
        336,
        336,
        334,
        325,
        0,
        0,
        0,
        0,
        0,
        0,
        0,
        0,
        0,
        0,
        0,
        0,
        0,
        0,
        0,
        0,
        0,
        0,
        0,
        0,
        0,
        0,
        0,
        0,
        0,
        0,
        0,
        0,
        0,
        0,
        0,
        0,
        0,
        0,
        0,
        0,
        0,
        0,
        0,
        0,
        0,
        0,
        0,
        0,
        0,
        331,
        336,
        336,
        336,
        336,
        336,
        336,
        336,
        336,
        336,
        326,
        0,
        0,
        0,
        0,
        0,
        0,
        0,
        0,
        0,
        0,
        0,
        0,
        0,
        0,
        0,
        0,
        0,
        0,
        0,
        0,
        0,
        0,
        0,
        0,
        0,
        0,
        0,
        0,
        0,
        0,
        0,
        0,
        0,
        0,
        0,
        0,
        0,
        0,
        0,
        0,
        0,
        0,
        0,
        0,
        0,
        331,
        336,
        336,
        336,
        336,
        336,
        336,
        336,
        336,
        336,
        326,
        0,
        0,
        0,
        0,
        0,
        0,
        0,
        0,
        0,
        0,
        0,
        0,
        0,
        0,
        0,
        0,
        0,
        0,
        0,
        0,
        0,
        0,
        0,
        0,
        0,
        0,
        0,
        0,
        0,
        0,
        0,
        0,
        0,
        0,
        0,
        0,
        0,
        0,
        0,
        0,
        0,
        0,
        0,
        0,
        0,
        323,
        324,
        324,
        324,
        324,
        324,
        324,
        324,
        324,
        324,
        322,
        0,
        0,
        0,
        0,
        0,
        0,
        0,
        0,
        0,
        0,
        0,
        0,
        0,
        0,
        0,
        0,
        0,
        0,
        0,
        0,
        0,
        0,
        0,
        0,
        0,
        0,
        0,
        0,
        0,
        0,
        0,
        0,
        0,
        0,
        0,
        0,
        0,
        0,
        0,
        0,
        0,
        0,
        0,
        0,
        0,
        0,
        0,
        0,
        0,
        0,
        0,
        0,
        0,
        0,
        0,
        0,
        0,
        0,
        0,
        0,
        0,
        0,
        0,
        0,
        0,
        0,
        0,
        0,
        0,
        0,
        0,
        0,
        0,
        0,
        0,
        0,
        0,
        0,
        0,
        0,
        0,
        0,
        0,
        0,
        0,
        0,
        0,
        0,
        0,
        0,
        0,
        0,
        0,
        0,
        0,
        0,
        0,
        0,
        0,
        0,
        0,
        0,
        0,
        0,
        0,
        0,
        0,
        0,
        0,
        0,
        0,
        0,
        0,
        0,
        0,
        0,
        0,
        0,
        0,
        0,
        0,
        0,
        0,
        0,
        0,
        0,
        0,
        0,
        0,
        0,
        0,
        0,
        0,
        0,
        0,
        0,
        0,
        0,
        0,
        0,
        0,
        0,
        0,
        0,
        0,
        0,
        0,
        0,
        0,
        0,
        0,
        0,
        0,
        0,
        0,
        0,
        0,
        0,
        0,
        0,
        0,
        0,
        0,
        0,
        0,
        0,
        0,
        0,
        0,
        0,
        0,
        0,
        0,
        0,
        0,
        0,
        0,
        0,
        0,
        0,
        0,
        0,
        0,
        0,
        0,
        0,
        0,
        0,
        0,
        0,
        0,
        0,
        0,
        0,
        0,
        0,
        0,
        0,
        0,
        0,
        0,
        0,
        0,
        0,
        0,
        0,
        0,
        0,
        0,
        0,
        0,
        0,
        0,
        0,
        0,
        0,
        0,
        0,
        0,
        0,
        0,
        0,
        0,
        0,
        0,
        0,
        0,
        0,
        0,
        0,
        0,
        0,
        0,
        0,
        0,
        0,
        0,
        0,
        0,
        0,
        0,
        0,
        0,
        0,
        0,
        0,
        0,
        0,
        0,
        0,
        0,
        0,
        0,
        0,
        0,
        0,
        0,
        0,
        0,
        0,
        0,
        0,
        0,
        0,
        0,
        0,
        0,
        0,
        0,
        0,
        0,
        0,
        0,
        0,
        0,
        0,
        0,
        0,
        0,
        0,
        0,
        0,
        0,
        0,
        0,
        0,
        0,
        0,
        0,
        0,
        0,
        0,
        0,
        0,
        0,
        0,
        0,
        0,
        0,
        0,
        0,
        0,
        0,
        0,
        0,
        0,
        0,
        0,
        0,
        0,
        0,
        0,
        0,
        0,
        0,
        0,
        0,
        0,
        0,
        0,
        0,
        0,
        0,
        0,
        0,
        0,
        0,
        0,
        0,
        0,
        0,
        0,
        0,
        0,
        0,
        0,
        0,
        0,
        0,
        0,
        0,
        0,
        0,
        0,
        0,
        0,
        0,
        0,
        0,
        0,
        0,
        0,
        0,
        0,
        0,
        0,
        0,
        0,
        0,
        0,
        0,
        0,
        0,
        0,
        0,
        0,
        0,
        0,
        0,
        0,
        0,
        0,
        0,
        0,
        0,
        0,
        0,
        0,
        0,
        0,
        0,
        0,
        0,
        0,
        0,
        0,
        0,
        0,
        0,
        0,
        0,
        0,
        0,
        0,
        0,
        0,
        0,
        0,
        0,
        0,
        0,
        0,
        0,
        0,
        0,
        0,
        0,
        0,
        0,
        0,
        0,
        0,
        0,
        0,
        0,
        0,
        0,
        0,
        0,
        0,
        0,
        0,
        0,
        0,
        0,
        0,
        0,
        0,
        0,
        0,
        0,
        0,
        0,
        0,
        0,
        0,
        0,
        0,
        0,
        0,
        0,
        0,
        0,
        0,
        0,
        0,
        0,
        0,
        0,
        0,
        0,
        0,
        0,
        0,
        0,
        0,
        0,
        0,
        0,
        0,
        0,
        0,
        0,
        0,
        0,
        0,
        0,
        0,
        0,
        0,
        0,
        0,
        0,
        0,
        0,
        0,
        0,
        0,
        0,
        0,
        0,
        0,
        0,
        0,
        0,
        0,
        0,
        0,
        0,
        0,
        0,
        0,
        0,
        0,
        0,
        0,
        0,
        0,
        0,
        0,
        0,
        0,
        0,
        0,
        0,
        0,
        0,
        0,
        0,
        0,
        0,
        0,
        0,
        0,
        0,
        0,
        0,
        0,
        0,
        0,
        0,
        0,
        0,
        0,
        0,
        0,
        0,
        0,
        0,
        0,
        0,
        0,
        0,
        0,
        0,
        0,
        0,
        0,
        0,
        0,
        0,
        0,
        0,
        0,
        0,
        0,
        0,
        0,
        0,
        0,
        0,
        0,
        0,
        0,
        0,
        0,
        0,
        0,
        0,
        0,
        0,
        0,
        0,
        0,
        0,
        0,
        0,
        0,
        0,
        0,
        0,
        0,
        0,
        0,
        0,
        0,
        0,
        0,
        0,
        0,
        0,
        0,
        0,
        0,
        0,
        0,
        0,
        0,
        0,
        0,
        0,
        0,
        0,
        0,
        0,
        0,
        0,
        0,
        0,
        0,
        0,
        0,
        0,
        0,
        0,
        0,
        0,
        0,
        0,
        0,
        0,
        0,
        0,
        0,
        0,
        0,
        0,
        0,
        0,
        0,
        0,
        0,
        0,
        0,
        0,
        0,
        0,
        0,
        0,
        0,
        0,
        0,
        0,
        0,
        0,
        0,
        0,
        0,
        0,
        0,
        0,
        0,
        0,
        0,
        0,
        0,
        0,
        0,
        0,
        0,
        0,
        0,
        0,
        0,
        0,
        0,
        0,
        0,
        0,
        0,
        0,
        0,
        0,
        0,
        0,
        0,
        0,
        0,
        0,
        0,
        0,
        0,
        0,
        0,
        0,
        0,
        0,
        0,
        0,
        0,
        0,
        0,
        0,
        0,
        0,
        0,
        0,
        0,
        0,
        0,
        0,
        0,
        0,
        0,
        0,
        0,
        0,
        0,
        0,
        0,
        0,
        0,
        0,
        0,
        0,
        0,
        0,
        0,
        0,
        0,
        0,
        0,
        0,
        0,
        0,
        0,
        0,
        0,
        0,
        0,
        0,
        0,
        0,
        0,
        0,
        0,
        0,
        0,
        0,
        0,
        0,
        0,
        0,
        0,
        0,
        0,
        0,
        0,
        0,
        0,
        0,
        0,
        0,
        0,
        0,
        0,
        0,
        0,
        0,
        0,
        0,
        0,
        0,
        0,
        0,
        0,
        0,
        0,
        0,
        0,
        0,
        0,
        0,
        0,
        0,
        0,
        0,
        0,
        0,
        0,
        0,
        0,
        0,
        0,
        0,
        0,
        0,
        0,
        0,
        0,
        0,
        0,
        0,
        0,
        0,
        0,
        0,
        0,
        0,
        0,
        0,
        0,
        0,
        0,
        0,
        0,
        0,
        0,
        0,
        0,
        0,
        0,
        0,
        0,
        0,
        0,
        0,
        0,
        0,
        0,
        0,
        0,
        0,
        0,
        0,
        0,
        0,
        0,
        0,
        0,
        0,
        0,
        0,
        0,
        0,
        0,
        0,
        0,
        0,
        0,
        0,
        0,
        0,
        0,
        0,
        0,
        0,
        0,
        0,
        0,
        0,
        0,
        0,
        0,
        0,
        0,
        0,
        0,
        0,
        0,
        0,
        0,
        0,
        0,
        0,
        0,
        0,
        0,
        0,
        0,
        0,
        0,
        0,
        0,
        0,
        0,
        0,
        0,
        0,
        0,
        0,
        0,
        0,
        0,
        0,
        0,
        0,
        0,
        0,
        0,
        0,
        0,
        0,
        0,
        0,
        0,
        0,
        0,
        0,
        0,
        0,
        0,
        0,
        0,
        0,
        0,
        0,
        0,
        0,
        0,
        0,
        0,
        0,
        0,
        0,
        0,
        0,
        0,
        0,
        0,
        0,
        0,
        0,
        0,
        0,
        0,
        0,
        0,
        0,
        0,
        0,
        0,
        0,
        0,
        0,
        0,
        0,
        0,
        0,
        0,
        0,
        0,
        0,
        0,
        0,
        0,
        0,
        0,
        0,
        0,
        0,
        0,
        0,
        0,
        0,
        0,
        0,
        0,
        0,
        0,
        0,
        0,
        0,
        0,
        0,
        0,
        0,
        0,
        0,
        0,
        0,
        0,
        0,
        0,
        0,
        0,
        0,
        0,
        0,
        0,
        0,
        0,
        0,
        0,
        0,
        0,
        0,
        0,
        0,
        0,
        0,
        0,
        0,
        0,
        0,
        0,
        0,
        0,
        0,
        0,
        0,
        0,
        0,
        0,
        0,
        0,
        0,
        0,
        0,
        0,
        0,
        0,
        0,
        0,
        0,
        0,
        0,
        0,
        0,
        0,
        0,
        0,
        0,
        0,
        0,
        0,
        0,
        0,
        0,
        0,
        0,
        0,
        0,
        0,
        0,
        0,
        0,
        0,
        0,
        0,
        0,
        0,
        0,
        0,
        0,
        0,
        0,
        0,
        0,
        0,
        0,
        0,
        0,
        0,
        0,
        0,
        0,
        0,
        0,
        0,
        0,
        0,
        0,
        0,
        0,
        0,
        0,
        0,
        0,
        0,
        0,
        0,
        0,
        0,
        0,
        0,
        0,
        0,
        0,
        0,
        0,
        0,
        0,
        0,
        0,
        0,
        0,
        0,
        0,
        0,
        0,
        0,
        0,
        0,
        0,
        0,
        0,
        0,
        0,
        0,
        0,
        0,
        0,
        0,
        0,
        0,
        0,
        0,
        0,
        0,
        0,
        0,
        0,
        0,
        0,
        0,
        0,
        0,
        0,
        0,
        0,
        0,
        0,
        0,
        0,
        0,
        0,
        0,
        0,
        0,
        0,
        0,
        0,
        0,
        0,
        0,
        0,
        0,
        0,
        0,
        0,
        0,
        0,
        0,
        0
      ],
      "offsetx": 40,
      "offsety": 112,
      "properties": [
        {
          "name": "collision",
          "type": "bool",
          "value": false
        }
      ]
    },
    {
      "id": 7,
      "name": "cliffs",
      "type": "tilelayer",
      "x": 0,
      "y": 0,
      "width": 56,
      "height": 36,
      "opacity": 1,
      "visible": true,
      "data": [
        0,
        0,
        0,
        0,
        0,
        0,
        0,
        0,
        0,
        0,
        0,
        0,
        0,
        0,
        0,
        0,
        0,
        0,
        0,
        0,
        0,
        0,
        0,
        0,
        0,
        0,
        0,
        0,
        0,
        0,
        0,
        0,
        0,
        0,
        0,
        0,
        0,
        0,
        0,
        0,
        0,
        0,
        0,
        0,
        0,
        0,
        0,
        0,
        0,
        0,
        0,
        0,
        0,
        0,
        0,
        0,
        0,
        0,
        0,
        0,
        0,
        0,
        0,
        0,
        0,
        0,
        0,
        0,
        0,
        0,
        0,
        0,
        0,
        0,
        0,
        0,
        0,
        0,
        0,
        0,
        0,
        0,
        0,
        0,
        0,
        0,
        0,
        0,
        0,
        0,
        0,
        0,
        0,
        0,
        0,
        0,
        0,
        0,
        0,
        0,
        0,
        0,
        0,
        0,
        0,
        0,
        0,
        0,
        0,
        0,
        0,
        0,
        0,
        0,
        0,
        0,
        0,
        0,
        0,
        0,
        0,
        0,
        0,
        0,
        0,
        0,
        0,
        0,
        0,
        0,
        0,
        0,
        0,
        0,
        0,
        0,
        0,
        0,
        0,
        0,
        0,
        0,
        0,
        0,
        0,
        0,
        0,
        0,
        0,
        0,
        0,
        0,
        0,
        0,
        0,
        0,
        0,
        0,
        0,
        0,
        0,
        0,
        0,
        0,
        0,
        0,
        0,
        0,
        0,
        0,
        0,
        0,
        0,
        0,
        0,
        0,
        0,
        0,
        0,
        0,
        0,
        0,
        0,
        0,
        0,
        0,
        0,
        0,
        0,
        0,
        0,
        0,
        0,
        0,
        0,
        0,
        0,
        0,
        0,
        0,
        0,
        0,
        0,
        0,
        0,
        0,
        0,
        0,
        0,
        0,
        0,
        0,
        0,
        0,
        0,
        0,
        0,
        0,
        0,
        0,
        0,
        0,
        0,
        0,
        0,
        0,
        0,
        0,
        0,
        0,
        0,
        0,
        0,
        0,
        0,
        0,
        0,
        0,
        0,
        0,
        0,
        0,
        0,
        0,
        0,
        0,
        0,
        0,
        0,
        0,
        0,
        0,
        0,
        0,
        0,
        0,
        0,
        0,
        0,
        0,
        0,
        0,
        0,
        0,
        0,
        0,
        0,
        0,
        0,
        0,
        0,
        0,
        0,
        0,
        0,
        0,
        0,
        0,
        0,
        0,
        0,
        0,
        0,
        0,
        0,
        0,
        0,
        0,
        0,
        0,
        0,
        0,
        0,
        0,
        0,
        0,
        0,
        0,
        0,
        0,
        0,
        0,
        0,
        0,
        0,
        0,
        0,
        0,
        0,
        0,
        0,
        0,
        0,
        0,
        0,
        0,
        0,
        0,
        0,
        0,
        0,
        0,
        0,
        0,
        0,
        0,
        0,
        0,
        0,
        0,
        0,
        0,
        0,
        0,
        0,
        0,
        0,
        0,
        0,
        0,
        0,
        0,
        0,
        0,
        0,
        0,
        0,
        0,
        0,
        0,
        0,
        0,
        0,
        0,
        0,
        0,
        0,
        0,
        0,
        0,
        0,
        0,
        0,
        0,
        0,
        0,
        0,
        0,
        0,
        0,
        0,
        0,
        0,
        0,
        0,
        0,
        0,
        0,
        0,
        0,
        0,
        0,
        0,
        0,
        0,
        0,
        0,
        0,
        0,
        0,
        0,
        0,
        0,
        0,
        0,
        0,
        0,
        0,
        0,
        0,
        0,
        0,
        0,
        0,
        0,
        0,
        0,
        0,
        0,
        0,
        0,
        0,
        0,
        0,
        0,
        0,
        0,
        0,
        0,
        0,
        0,
        0,
        0,
        0,
        0,
        0,
        0,
        0,
        0,
        0,
        0,
        0,
        0,
        0,
        0,
        0,
        0,
        0,
        0,
        0,
        0,
        0,
        0,
        0,
        0,
        0,
        0,
        0,
        0,
        0,
        0,
        0,
        0,
        0,
        0,
        0,
        0,
        0,
        0,
        0,
        0,
        0,
        0,
        0,
        0,
        0,
        0,
        0,
        0,
        0,
        0,
        0,
        0,
        0,
        0,
        0,
        0,
        0,
        0,
        0,
        297,
        317,
        293,
        0,
        0,
        0,
        0,
        0,
        0,
        0,
        0,
        0,
        0,
        0,
        0,
        0,
        0,
        0,
        0,
        0,
        0,
        0,
        0,
        0,
        0,
        0,
        0,
        0,
        0,
        0,
        0,
        0,
        0,
        0,
        0,
        0,
        0,
        0,
        0,
        0,
        0,
        0,
        0,
        0,
        0,
        0,
        0,
        0,
        0,
        0,
        0,
        0,
        0,
        0,
        0,
        281,
        271,
        288,
        270,
        277,
        0,
        0,
        0,
        0,
        0,
        0,
        0,
        0,
        0,
        0,
        0,
        0,
        0,
        0,
        0,
        0,
        0,
        0,
        0,
        0,
        0,
        0,
        0,
        0,
        0,
        0,
        0,
        0,
        0,
        0,
        0,
        0,
        0,
        0,
        0,
        0,
        0,
        0,
        0,
        0,
        0,
        0,
        0,
        0,
        0,
        0,
        0,
        0,
        0,
        0,
        297,
        319,
        304,
        320,
        304,
        318,
        293,
        0,
        0,
        0,
        0,
        0,
        0,
        0,
        0,
        0,
        0,
        0,
        0,
        0,
        0,
        0,
        0,
        0,
        0,
        0,
        0,
        0,
        0,
        0,
        0,
        0,
        0,
        0,
        0,
        0,
        0,
        0,
        0,
        0,
        0,
        0,
        0,
        0,
        0,
        0,
        0,
        0,
        0,
        0,
        0,
        0,
        0,
        0,
        0,
        0,
        267,
        288,
        272,
        288,
        272,
        288,
        270,
        285,
        269,
        277,
        0,
        0,
        0,
        0,
        0,
        0,
        0,
        0,
        0,
        0,
        0,
        0,
        0,
        0,
        0,
        0,
        0,
        0,
        0,
        0,
        0,
        0,
        0,
        0,
        0,
        0,
        0,
        0,
        0,
        0,
        0,
        0,
        0,
        0,
        0,
        0,
        0,
        0,
        0,
        0,
        0,
        0,
        0,
        0,
        0,
        0,
        299,
        320,
        304,
        320,
        304,
        320,
        304,
        320,
        304,
        318,
        293,
        0,
        0,
        0,
        0,
        0,
        0,
        0,
        0,
        0,
        0,
        0,
        0,
        0,
        0,
        0,
        0,
        0,
        0,
        0,
        0,
        0,
        0,
        0,
        0,
        0,
        0,
        0,
        0,
        0,
        0,
        0,
        0,
        0,
        0,
        0,
        0,
        0,
        0,
        0,
        0,
        0,
        0,
        0,
        0,
        0,
        267,
        288,
        272,
        288,
        272,
        288,
        272,
        288,
        272,
        288,
        262,
        0,
        0,
        0,
        0,
        0,
        0,
        0,
        0,
        0,
        0,
        0,
        0,
        0,
        0,
        0,
        0,
        0,
        0,
        0,
        0,
        0,
        0,
        0,
        0,
        0,
        0,
        0,
        0,
        0,
        0,
        0,
        0,
        0,
        0,
        0,
        0,
        0,
        0,
        0,
        0,
        0,
        0,
        0,
        0,
        0,
        299,
        320,
        304,
        320,
        304,
        320,
        304,
        320,
        304,
        320,
        294,
        0,
        0,
        0,
        0,
        0,
        0,
        0,
        0,
        0,
        0,
        0,
        0,
        0,
        0,
        0,
        0,
        0,
        0,
        0,
        0,
        0,
        0,
        0,
        0,
        0,
        0,
        0,
        0,
        0,
        0,
        0,
        0,
        0,
        0,
        0,
        0,
        0,
        0,
        0,
        0,
        0,
        0,
        0,
        0,
        0,
        259,
        276,
        260,
        276,
        260,
        276,
        260,
        276,
        260,
        276,
        258,
        0,
        0,
        0,
        0,
        0,
        0,
        0,
        0,
        0,
        0,
        0,
        0,
        0,
        0,
        0,
        0,
        0,
        0,
        0,
        0,
        0,
        0,
        0,
        0,
        0,
        0,
        0,
        0,
        0,
        0,
        0,
        0,
        0,
        0,
        0,
        0,
        0,
        0,
        0,
        0,
        0,
        0,
        0,
        0,
        0,
        0,
        0,
        0,
        0,
        0,
        0,
        0,
        0,
        0,
        0,
        0,
        0,
        0,
        0,
        0,
        0,
        0,
        0,
        0,
        0,
        0,
        0,
        0,
        0,
        0,
        0,
        0,
        0,
        0,
        0,
        0,
        0,
        0,
        0,
        0,
        0,
        0,
        0,
        0,
        0,
        0,
        0,
        0,
        0,
        0,
        0,
        0,
        0,
        0,
        0,
        0,
        0,
        0,
        0,
        0,
        0,
        0,
        0,
        0,
        0,
        0,
        0,
        0,
        0,
        0,
        0,
        0,
        0,
        0,
        0,
        0,
        0,
        0,
        0,
        0,
        0,
        0,
        0,
        0,
        0,
        0,
        0,
        0,
        0,
        0,
        0,
        0,
        0,
        0,
        0,
        0,
        0,
        0,
        0,
        0,
        0,
        0,
        0,
        0,
        0,
        0,
        0,
        0,
        0,
        0,
        0,
        0,
        0,
        0,
        0,
        0,
        0,
        0,
        0,
        0,
        0,
        0,
        0,
        0,
        0,
        0,
        0,
        0,
        0,
        0,
        0,
        0,
        0,
        0,
        0,
        0,
        0,
        0,
        0,
        0,
        0,
        0,
        0,
        0,
        0,
        0,
        0,
        0,
        0,
        0,
        0,
        0,
        0,
        0,
        0,
        0,
        0,
        0,
        0,
        0,
        0,
        0,
        0,
        0,
        0,
        0,
        0,
        0,
        0,
        0,
        0,
        0,
        0,
        0,
        0,
        0,
        0,
        0,
        0,
        0,
        0,
        0,
        0,
        0,
        0,
        0,
        0,
        0,
        0,
        0,
        0,
        0,
        0,
        0,
        0,
        0,
        0,
        0,
        0,
        0,
        0,
        0,
        0,
        0,
        0,
        0,
        0,
        0,
        0,
        0,
        0,
        0,
        0,
        0,
        0,
        0,
        0,
        0,
        0,
        0,
        0,
        0,
        0,
        0,
        0,
        0,
        0,
        0,
        0,
        0,
        0,
        0,
        0,
        0,
        0,
        0,
        0,
        0,
        0,
        0,
        0,
        0,
        0,
        0,
        0,
        0,
        0,
        0,
        0,
        0,
        0,
        0,
        0,
        0,
        0,
        0,
        0,
        0,
        0,
        0,
        0,
        0,
        0,
        0,
        0,
        0,
        0,
        0,
        0,
        0,
        0,
        0,
        0,
        0,
        0,
        0,
        0,
        0,
        0,
        0,
        0,
        0,
        0,
        0,
        0,
        0,
        0,
        0,
        0,
        0,
        0,
        0,
        0,
        0,
        0,
        0,
        0,
        0,
        0,
        0,
        0,
        0,
        0,
        0,
        0,
        0,
        0,
        0,
        0,
        0,
        0,
        0,
        0,
        0,
        0,
        0,
        0,
        0,
        0,
        0,
        0,
        0,
        0,
        0,
        0,
        0,
        0,
        0,
        0,
        0,
        0,
        0,
        0,
        0,
        0,
        0,
        0,
        0,
        0,
        0,
        0,
        0,
        0,
        0,
        0,
        0,
        0,
        0,
        0,
        0,
        0,
        0,
        0,
        0,
        0,
        0,
        0,
        0,
        0,
        0,
        0,
        0,
        0,
        0,
        0,
        0,
        0,
        0,
        0,
        0,
        0,
        0,
        0,
        0,
        0,
        0,
        0,
        0,
        0,
        0,
        0,
        0,
        0,
        0,
        0,
        0,
        0,
        0,
        0,
        0,
        0,
        0,
        0,
        0,
        0,
        0,
        0,
        0,
        0,
        0,
        0,
        0,
        0,
        0,
        0,
        0,
        0,
        0,
        0,
        0,
        0,
        0,
        0,
        0,
        0,
        0,
        0,
        0,
        0,
        0,
        0,
        0,
        0,
        0,
        0,
        0,
        0,
        0,
        0,
        0,
        0,
        0,
        0,
        0,
        0,
        0,
        0,
        0,
        0,
        0,
        0,
        0,
        0,
        0,
        0,
        0,
        0,
        0,
        0,
        0,
        0,
        0,
        0,
        0,
        0,
        0,
        0,
        0,
        0,
        0,
        0,
        0,
        0,
        0,
        0,
        0,
        0,
        0,
        0,
        0,
        0,
        0,
        0,
        0,
        0,
        0,
        0,
        0,
        0,
        0,
        0,
        0,
        0,
        0,
        0,
        0,
        0,
        0,
        0,
        0,
        0,
        0,
        0,
        0,
        0,
        0,
        0,
        0,
        0,
        0,
        0,
        0,
        0,
        0,
        0,
        0,
        0,
        0,
        0,
        0,
        0,
        0,
        0,
        0,
        0,
        0,
        0,
        0,
        0,
        0,
        0,
        0,
        0,
        0,
        0,
        0,
        0,
        0,
        0,
        0,
        0,
        0,
        0,
        0,
        0,
        0,
        0,
        0,
        0,
        0,
        0,
        0,
        0,
        0,
        0,
        0,
        0,
        0,
        0,
        0,
        0,
        0,
        0,
        0,
        0,
        0,
        0,
        0,
        0,
        0,
        0,
        0,
        0,
        0,
        0,
        0,
        0,
        0,
        0,
        0,
        0,
        0,
        0,
        0,
        0,
        0,
        0,
        0,
        0,
        0,
        0,
        0,
        0,
        0,
        0,
        0,
        0,
        0,
        0,
        0,
        0,
        0,
        0,
        0,
        0,
        0,
        0,
        0,
        0,
        0,
        0,
        0,
        0,
        0,
        0,
        0,
        0,
        0,
        0,
        0,
        0,
        0,
        0,
        0,
        0,
        0,
        0,
        0,
        0,
        0,
        0,
        0,
        0,
        0,
        0,
        0,
        0,
        0,
        0,
        0,
        0,
        0,
        0,
        0,
        0,
        0,
        0,
        0,
        0,
        0,
        0,
        0,
        0,
        0,
        0,
        0,
        0,
        0,
        0,
        0,
        0,
        0,
        0,
        0,
        0,
        0,
        0,
        0,
        0,
        0,
        0,
        0,
        0,
        0,
        0,
        0,
        0,
        0,
        0,
        0,
        0,
        0,
        0,
        0,
        0,
        0,
        0,
        0,
        0,
        0,
        0,
        0,
        0,
        0,
        0,
        0,
        0,
        0,
        0,
        0,
        0,
        0,
        0,
        0,
        0,
        0,
        0,
        0,
        0,
        0,
        0,
        0,
        0,
        0,
        0,
        0,
        0,
        0,
        0,
        0,
        0,
        0,
        0,
        0,
        0,
        0,
        0,
        0,
        0,
        0,
        0,
        0,
        0,
        0,
        0,
        0,
        0,
        0,
        0,
        0,
        0,
        0,
        0,
        0,
        0,
        0,
        0,
        0,
        0,
        0,
        0,
        0,
        0,
        0,
        0,
        0,
        0,
        0,
        0,
        0,
        0,
        0,
        0,
        0,
        0,
        0,
        0,
        0,
        0,
        0,
        0,
        0,
        0,
        0,
        0,
        0,
        0,
        0,
        0,
        0,
        0,
        0,
        0,
        0,
        0,
        0,
        0,
        0,
        0,
        0,
        0,
        0,
        0,
        0,
        0,
        0,
        0,
        0,
        0,
        0,
        0,
        0,
        0,
        0,
        0,
        0,
        0,
        0,
        0,
        0,
        0,
        0,
        0,
        0,
        0,
        0,
        0,
        0,
        0,
        0,
        0,
        0,
        0,
        0,
        0,
        0,
        0,
        0,
        0,
        0,
        0,
        0,
        0,
        0,
        0,
        0,
        0,
        0,
        0,
        0,
        0,
        0,
        0,
        0,
        0,
        0,
        0,
        0,
        0,
        0,
        0,
        0,
        0,
        0,
        0,
        0,
        0,
        0,
        0,
        0,
        0,
        0,
        0,
        0,
        0,
        0,
        0,
        0,
        0,
        0,
        0,
        0,
        0,
        0,
        0,
        0,
        0,
        0,
        0,
        0,
        0,
        0,
        0,
        0,
        0,
        0,
        0,
        0,
        0,
        0,
        0,
        0,
        0,
        0,
        0,
        0,
        0,
        0,
        0,
        0,
        0,
        0,
        0,
        0,
        0,
        0,
        0,
        0,
        0,
        0,
        0,
        0,
        0,
        0,
        0,
        0,
        0,
        0,
        0,
        0,
        0,
        0,
        0,
        0,
        0,
        0,
        0,
        0,
        0,
        0,
        0,
        0,
        0,
        0,
        0,
        0,
        0,
        0,
        0,
        0,
        0,
        0,
        0,
        0,
        0,
        0,
        0,
        0,
        0,
        0,
        0,
        0,
        0,
        0,
        0,
        0,
        0,
        0,
        0,
        0,
        0,
        0,
        0,
        0,
        0,
        0,
        0,
        0,
        0,
        0,
        0,
        0,
        0,
        0,
        0,
        0,
        0,
        0,
        0,
        0,
        0,
        0,
        0,
        0,
        0,
        0,
        0,
        0,
        0,
        0,
        0,
        0,
        0,
        0,
        0,
        0,
        0,
        0,
        0,
        0,
        0,
        0,
        0,
        0,
        0,
        0,
        0,
        0,
        0,
        0,
        0,
        0,
        0,
        0,
        0,
        0,
        0,
        0,
        0,
        0,
        0,
        0,
        0,
        0,
        0,
        0,
        0,
        0,
        0,
        0,
        0,
        0,
        0,
        0,
        0,
        0,
        0,
        0,
        0,
        0,
        0,
        0,
        0,
        0,
        0,
        0,
        0,
        0,
        0,
        0,
        0,
        0,
        0,
        0,
        0,
        0,
        0,
        0,
        0,
        0,
        0,
        0,
        0,
        0,
        0,
        0,
        0,
        0,
        0,
        0,
        0,
        0,
        0,
        0,
        0,
        0,
        0,
        0,
        0,
        0,
        0,
        0,
        0,
        0,
        0,
        0,
        0,
        0,
        0,
        0,
        0,
        0,
        0,
        0,
        0,
        0,
        0,
        0,
        0,
        0,
        0,
        0,
        0,
        0,
        0
      ],
      "offsetx": 32,
      "offsety": 96,
      "properties": [
        {
          "name": "collision",
          "type": "bool",
          "value": false
        }
      ]
    },
    {
      "id": 8,
      "name": "plateau",
      "type": "tilelayer",
      "x": 0,
      "y": 0,
      "width": 56,
      "height": 36,
      "opacity": 1,
      "visible": true,
      "data": [
        0,
        0,
        0,
        0,
        0,
        0,
        0,
        0,
        0,
        0,
        0,
        0,
        0,
        0,
        0,
        0,
        0,
        0,
        0,
        0,
        0,
        0,
        0,
        0,
        0,
        0,
        0,
        0,
        0,
        0,
        0,
        0,
        0,
        0,
        0,
        0,
        0,
        0,
        0,
        0,
        0,
        0,
        0,
        0,
        0,
        0,
        0,
        0,
        0,
        0,
        0,
        0,
        0,
        0,
        0,
        0,
        0,
        0,
        0,
        0,
        0,
        0,
        0,
        0,
        0,
        0,
        0,
        0,
        0,
        0,
        0,
        0,
        0,
        0,
        0,
        0,
        0,
        0,
        0,
        0,
        0,
        0,
        0,
        0,
        0,
        0,
        0,
        0,
        0,
        0,
        0,
        0,
        0,
        0,
        0,
        0,
        0,
        0,
        0,
        0,
        0,
        0,
        0,
        0,
        0,
        0,
        0,
        0,
        0,
        0,
        0,
        0,
        0,
        0,
        0,
        0,
        0,
        0,
        0,
        0,
        0,
        0,
        0,
        0,
        0,
        0,
        0,
        0,
        0,
        0,
        0,
        0,
        0,
        0,
        0,
        0,
        0,
        0,
        0,
        0,
        0,
        0,
        0,
        0,
        0,
        0,
        0,
        0,
        0,
        0,
        0,
        0,
        0,
        0,
        0,
        0,
        0,
        0,
        0,
        0,
        0,
        0,
        0,
        0,
        0,
        0,
        0,
        0,
        0,
        0,
        0,
        0,
        0,
        0,
        0,
        0,
        0,
        0,
        0,
        0,
        0,
        0,
        0,
        0,
        0,
        0,
        0,
        0,
        0,
        0,
        0,
        0,
        0,
        0,
        0,
        0,
        0,
        0,
        0,
        0,
        0,
        0,
        0,
        0,
        0,
        0,
        0,
        0,
        0,
        0,
        0,
        0,
        0,
        0,
        0,
        0,
        0,
        0,
        0,
        0,
        0,
        0,
        0,
        0,
        0,
        0,
        0,
        0,
        0,
        0,
        0,
        0,
        0,
        0,
        0,
        0,
        0,
        0,
        0,
        0,
        0,
        0,
        0,
        0,
        0,
        0,
        0,
        0,
        0,
        0,
        0,
        0,
        0,
        0,
        0,
        0,
        0,
        0,
        0,
        0,
        0,
        0,
        0,
        0,
        0,
        0,
        0,
        0,
        0,
        0,
        0,
        0,
        0,
        0,
        0,
        0,
        0,
        0,
        0,
        0,
        0,
        0,
        0,
        0,
        0,
        0,
        0,
        0,
        0,
        0,
        0,
        0,
        0,
        0,
        0,
        0,
        0,
        0,
        0,
        0,
        0,
        0,
        0,
        0,
        0,
        0,
        0,
        0,
        0,
        0,
        0,
        0,
        0,
        0,
        0,
        0,
        0,
        0,
        0,
        0,
        0,
        0,
        0,
        0,
        0,
        0,
        0,
        0,
        0,
        0,
        0,
        0,
        0,
        0,
        0,
        0,
        0,
        0,
        0,
        0,
        0,
        0,
        0,
        0,
        0,
        0,
        0,
        0,
        0,
        0,
        0,
        0,
        0,
        0,
        0,
        0,
        0,
        0,
        0,
        0,
        0,
        0,
        0,
        0,
        0,
        0,
        0,
        0,
        0,
        0,
        0,
        0,
        0,
        0,
        0,
        0,
        0,
        0,
        0,
        0,
        0,
        0,
        0,
        0,
        0,
        0,
        0,
        0,
        0,
        0,
        0,
        0,
        0,
        0,
        0,
        0,
        0,
        0,
        0,
        0,
        0,
        0,
        0,
        0,
        0,
        0,
        0,
        0,
        0,
        0,
        0,
        0,
        0,
        0,
        0,
        0,
        0,
        0,
        0,
        0,
        0,
        0,
        0,
        0,
        0,
        0,
        0,
        0,
        0,
        0,
        0,
        0,
        0,
        0,
        0,
        0,
        0,
        0,
        0,
        0,
        0,
        0,
        0,
        0,
        0,
        0,
        0,
        0,
        0,
        0,
        0,
        0,
        0,
        0,
        0,
        0,
        0,
        0,
        0,
        0,
        0,
        0,
        0,
        0,
        0,
        0,
        0,
        0,
        0,
        0,
        0,
        0,
        0,
        0,
        0,
        0,
        0,
        0,
        0,
        0,
        137,
        157,
        133,
        0,
        0,
        0,
        0,
        0,
        0,
        0,
        0,
        0,
        0,
        0,
        0,
        0,
        0,
        0,
        0,
        0,
        0,
        0,
        0,
        0,
        0,
        0,
        0,
        0,
        0,
        0,
        0,
        0,
        0,
        0,
        0,
        0,
        0,
        0,
        0,
        0,
        0,
        0,
        0,
        0,
        0,
        0,
        0,
        0,
        0,
        0,
        0,
        0,
        0,
        0,
        0,
        185,
        175,
        192,
        174,
        181,
        0,
        0,
        0,
        0,
        0,
        0,
        0,
        0,
        0,
        0,
        0,
        0,
        0,
        0,
        0,
        0,
        0,
        0,
        0,
        0,
        0,
        0,
        0,
        0,
        0,
        0,
        0,
        0,
        0,
        0,
        0,
        0,
        0,
        0,
        0,
        0,
        0,
        0,
        0,
        0,
        0,
        0,
        0,
        0,
        0,
        0,
        0,
        0,
        0,
        0,
        137,
        159,
        144,
        160,
        144,
        158,
        133,
        0,
        0,
        0,
        0,
        0,
        0,
        0,
        0,
        0,
        0,
        0,
        0,
        0,
        0,
        0,
        0,
        0,
        0,
        0,
        0,
        0,
        0,
        0,
        0,
        0,
        0,
        0,
        0,
        0,
        0,
        0,
        0,
        0,
        0,
        0,
        0,
        0,
        0,
        0,
        0,
        0,
        0,
        0,
        0,
        0,
        0,
        0,
        0,
        0,
        171,
        192,
        176,
        192,
        176,
        192,
        174,
        189,
        173,
        181,
        0,
        0,
        0,
        0,
        0,
        0,
        0,
        0,
        0,
        0,
        0,
        0,
        0,
        0,
        0,
        0,
        0,
        0,
        0,
        0,
        0,
        0,
        0,
        0,
        0,
        0,
        0,
        0,
        0,
        0,
        0,
        0,
        0,
        0,
        0,
        0,
        0,
        0,
        0,
        0,
        0,
        0,
        0,
        0,
        0,
        0,
        139,
        160,
        144,
        160,
        144,
        160,
        144,
        160,
        144,
        158,
        133,
        0,
        0,
        0,
        0,
        0,
        0,
        0,
        0,
        0,
        0,
        0,
        0,
        0,
        0,
        0,
        0,
        0,
        0,
        0,
        0,
        0,
        0,
        0,
        0,
        0,
        0,
        0,
        0,
        0,
        0,
        0,
        0,
        0,
        0,
        0,
        0,
        0,
        0,
        0,
        0,
        0,
        0,
        0,
        0,
        0,
        171,
        192,
        176,
        192,
        176,
        192,
        176,
        192,
        176,
        192,
        166,
        0,
        0,
        0,
        0,
        0,
        0,
        0,
        0,
        0,
        0,
        0,
        0,
        0,
        0,
        0,
        0,
        0,
        0,
        0,
        0,
        0,
        0,
        0,
        0,
        0,
        0,
        0,
        0,
        0,
        0,
        0,
        0,
        0,
        0,
        0,
        0,
        0,
        0,
        0,
        0,
        0,
        0,
        0,
        0,
        0,
        139,
        160,
        144,
        160,
        144,
        160,
        144,
        160,
        144,
        160,
        134,
        0,
        0,
        0,
        0,
        0,
        0,
        0,
        0,
        0,
        0,
        0,
        0,
        0,
        0,
        0,
        0,
        0,
        0,
        0,
        0,
        0,
        0,
        0,
        0,
        0,
        0,
        0,
        0,
        0,
        0,
        0,
        0,
        0,
        0,
        0,
        0,
        0,
        0,
        0,
        0,
        0,
        0,
        0,
        0,
        0,
        163,
        180,
        164,
        180,
        164,
        180,
        164,
        180,
        164,
        180,
        162,
        0,
        0,
        0,
        0,
        0,
        0,
        0,
        0,
        0,
        0,
        0,
        0,
        0,
        0,
        0,
        0,
        0,
        0,
        0,
        0,
        0,
        0,
        0,
        0,
        0,
        0,
        0,
        0,
        0,
        0,
        0,
        0,
        0,
        0,
        0,
        0,
        0,
        0,
        0,
        0,
        0,
        0,
        0,
        0,
        0,
        0,
        0,
        0,
        0,
        0,
        0,
        0,
        0,
        0,
        0,
        0,
        0,
        0,
        0,
        0,
        0,
        0,
        0,
        0,
        0,
        0,
        0,
        0,
        0,
        0,
        0,
        0,
        0,
        0,
        0,
        0,
        0,
        0,
        0,
        0,
        0,
        0,
        0,
        0,
        0,
        0,
        0,
        0,
        0,
        0,
        0,
        0,
        0,
        0,
        0,
        0,
        0,
        0,
        0,
        0,
        0,
        0,
        0,
        0,
        0,
        0,
        0,
        0,
        0,
        0,
        0,
        0,
        0,
        0,
        0,
        0,
        0,
        0,
        0,
        0,
        0,
        0,
        0,
        0,
        0,
        0,
        0,
        0,
        0,
        0,
        0,
        0,
        0,
        0,
        0,
        0,
        0,
        0,
        0,
        0,
        0,
        0,
        0,
        0,
        0,
        0,
        0,
        0,
        0,
        0,
        0,
        0,
        0,
        0,
        0,
        0,
        0,
        0,
        0,
        0,
        0,
        0,
        0,
        0,
        0,
        0,
        0,
        0,
        0,
        0,
        0,
        0,
        0,
        0,
        0,
        0,
        0,
        0,
        0,
        0,
        0,
        0,
        0,
        0,
        0,
        0,
        0,
        0,
        0,
        0,
        0,
        0,
        0,
        0,
        0,
        0,
        0,
        0,
        0,
        0,
        0,
        0,
        0,
        0,
        0,
        0,
        0,
        0,
        0,
        0,
        0,
        0,
        0,
        0,
        0,
        0,
        0,
        0,
        0,
        0,
        0,
        0,
        0,
        0,
        0,
        0,
        0,
        0,
        0,
        0,
        0,
        0,
        0,
        0,
        0,
        0,
        0,
        0,
        0,
        0,
        0,
        0,
        0,
        0,
        0,
        0,
        0,
        0,
        0,
        0,
        0,
        0,
        0,
        0,
        0,
        0,
        0,
        0,
        0,
        0,
        0,
        0,
        0,
        0,
        0,
        0,
        0,
        0,
        0,
        0,
        0,
        0,
        0,
        0,
        0,
        0,
        0,
        0,
        0,
        0,
        0,
        0,
        0,
        0,
        0,
        0,
        0,
        0,
        0,
        0,
        0,
        0,
        0,
        0,
        0,
        0,
        0,
        0,
        0,
        0,
        0,
        0,
        0,
        0,
        0,
        0,
        0,
        0,
        0,
        0,
        0,
        0,
        0,
        0,
        0,
        0,
        0,
        0,
        0,
        0,
        0,
        0,
        0,
        0,
        0,
        0,
        0,
        0,
        0,
        0,
        0,
        0,
        0,
        0,
        0,
        0,
        0,
        0,
        0,
        0,
        0,
        0,
        0,
        0,
        0,
        0,
        0,
        0,
        0,
        0,
        0,
        0,
        0,
        0,
        0,
        0,
        0,
        0,
        0,
        0,
        0,
        0,
        0,
        0,
        0,
        0,
        0,
        0,
        0,
        0,
        0,
        0,
        0,
        0,
        0,
        0,
        0,
        0,
        0,
        0,
        0,
        0,
        0,
        0,
        0,
        0,
        0,
        0,
        0,
        0,
        0,
        0,
        0,
        0,
        0,
        0,
        0,
        0,
        0,
        0,
        0,
        0,
        0,
        0,
        0,
        0,
        0,
        0,
        0,
        0,
        0,
        0,
        0,
        0,
        0,
        0,
        0,
        0,
        0,
        0,
        0,
        0,
        0,
        0,
        0,
        0,
        0,
        0,
        0,
        0,
        0,
        0,
        0,
        0,
        0,
        0,
        0,
        0,
        0,
        0,
        0,
        0,
        0,
        0,
        0,
        0,
        0,
        0,
        0,
        0,
        0,
        0,
        0,
        0,
        0,
        0,
        0,
        0,
        0,
        0,
        0,
        0,
        0,
        0,
        0,
        0,
        0,
        0,
        0,
        0,
        0,
        0,
        0,
        0,
        0,
        0,
        0,
        0,
        0,
        0,
        0,
        0,
        0,
        0,
        0,
        0,
        0,
        0,
        0,
        0,
        0,
        0,
        0,
        0,
        0,
        0,
        0,
        0,
        0,
        0,
        0,
        0,
        0,
        0,
        0,
        0,
        0,
        0,
        0,
        0,
        0,
        0,
        0,
        0,
        0,
        0,
        0,
        0,
        0,
        0,
        0,
        0,
        0,
        0,
        0,
        0,
        0,
        0,
        0,
        0,
        0,
        0,
        0,
        0,
        0,
        0,
        0,
        0,
        0,
        0,
        0,
        0,
        0,
        0,
        0,
        0,
        0,
        0,
        0,
        0,
        0,
        0,
        0,
        0,
        0,
        0,
        0,
        0,
        0,
        0,
        0,
        0,
        0,
        0,
        0,
        0,
        0,
        0,
        0,
        0,
        0,
        0,
        0,
        0,
        0,
        0,
        0,
        0,
        0,
        0,
        0,
        0,
        0,
        0,
        0,
        0,
        0,
        0,
        0,
        0,
        0,
        0,
        0,
        0,
        0,
        0,
        0,
        0,
        0,
        0,
        0,
        0,
        0,
        0,
        0,
        0,
        0,
        0,
        0,
        0,
        0,
        0,
        0,
        0,
        0,
        0,
        0,
        0,
        0,
        0,
        0,
        0,
        0,
        0,
        0,
        0,
        0,
        0,
        0,
        0,
        0,
        0,
        0,
        0,
        0,
        0,
        0,
        0,
        0,
        0,
        0,
        0,
        0,
        0,
        0,
        0,
        0,
        0,
        0,
        0,
        0,
        0,
        0,
        0,
        0,
        0,
        0,
        0,
        0,
        0,
        0,
        0,
        0,
        0,
        0,
        0,
        0,
        0,
        0,
        0,
        0,
        0,
        0,
        0,
        0,
        0,
        0,
        0,
        0,
        0,
        0,
        0,
        0,
        0,
        0,
        0,
        0,
        0,
        0,
        0,
        0,
        0,
        0,
        0,
        0,
        0,
        0,
        0,
        0,
        0,
        0,
        0,
        0,
        0,
        0,
        0,
        0,
        0,
        0,
        0,
        0,
        0,
        0,
        0,
        0,
        0,
        0,
        0,
        0,
        0,
        0,
        0,
        0,
        0,
        0,
        0,
        0,
        0,
        0,
        0,
        0,
        0,
        0,
        0,
        0,
        0,
        0,
        0,
        0,
        0,
        0,
        0,
        0,
        0,
        0,
        0,
        0,
        0,
        0,
        0,
        0,
        0,
        0,
        0,
        0,
        0,
        0,
        0,
        0,
        0,
        0,
        0,
        0,
        0,
        0,
        0,
        0,
        0,
        0,
        0,
        0,
        0,
        0,
        0,
        0,
        0,
        0,
        0,
        0,
        0,
        0,
        0,
        0,
        0,
        0,
        0,
        0,
        0,
        0,
        0,
        0,
        0,
        0,
        0,
        0,
        0,
        0,
        0,
        0,
        0,
        0,
        0,
        0,
        0,
        0,
        0,
        0,
        0,
        0,
        0,
        0,
        0,
        0,
        0,
        0,
        0,
        0,
        0,
        0,
        0,
        0,
        0,
        0,
        0,
        0,
        0,
        0,
        0,
        0,
        0,
        0,
        0,
        0,
        0,
        0,
        0,
        0,
        0,
        0,
        0,
        0,
        0,
        0,
        0,
        0,
        0,
        0,
        0,
        0,
        0,
        0,
        0,
        0,
        0,
        0,
        0,
        0,
        0,
        0,
        0,
        0,
        0,
        0,
        0,
        0,
        0,
        0,
        0,
        0,
        0,
        0,
        0,
        0,
        0,
        0,
        0,
        0,
        0,
        0,
        0,
        0,
        0,
        0,
        0,
        0,
        0,
        0,
        0,
        0,
        0,
        0,
        0,
        0,
        0,
        0,
        0,
        0,
        0,
        0,
        0,
        0,
        0,
        0,
        0,
        0,
        0,
        0,
        0,
        0,
        0,
        0,
        0,
        0,
        0,
        0,
        0,
        0,
        0,
        0,
        0,
        0,
        0,
        0,
        0,
        0,
        0,
        0,
        0,
        0,
        0,
        0,
        0,
        0,
        0,
        0,
        0,
        0,
        0,
        0,
        0,
        0,
        0,
        0,
        0,
        0,
        0,
        0,
        0,
        0,
        0,
        0,
        0,
        0,
        0,
        0,
        0,
        0,
        0,
        0,
        0,
        0,
        0,
        0,
        0,
        0,
        0,
        0,
        0,
        0,
        0,
        0,
        0,
        0,
        0,
        0,
        0,
        0,
        0,
        0,
        0,
        0,
        0,
        0,
        0,
        0,
        0,
        0,
        0,
        0,
        0,
        0,
        0,
        0,
        0,
        0,
        0,
        0,
        0,
        0,
        0,
        0,
        0,
        0,
        0,
        0,
        0,
        0,
        0,
        0,
        0,
        0,
        0,
        0,
        0,
        0,
        0,
        0,
        0,
        0,
        0,
        0,
        0,
        0,
        0,
        0,
        0,
        0,
        0,
        0,
        0,
        0,
        0,
        0,
        0,
        0,
        0,
        0,
        0,
        0,
        0,
        0,
        0,
        0,
        0,
        0,
        0,
        0,
        0,
        0,
        0,
        0,
        0,
        0,
        0,
        0,
        0,
        0,
        0,
        0,
        0,
        0,
        0,
        0,
        0,
        0,
        0,
        0,
        0,
        0,
        0,
        0,
        0,
        0,
        0,
        0,
        0,
        0,
        0,
        0,
        0,
        0,
        0,
        0,
        0,
        0,
        0,
        0,
        0,
        0,
        0,
        0,
        0,
        0,
        0,
        0,
        0,
        0,
        0,
        0,
        0,
        0,
        0,
        0,
        0,
        0,
        0,
        0,
        0,
        0,
        0,
        0,
        0,
        0,
        0,
        0,
        0,
        0,
        0,
        0,
        0,
        0,
        0,
        0,
        0,
        0,
        0,
        0,
        0,
        0,
        0,
        0,
        0,
        0,
        0,
        0
      ],
      "offsetx": 32,
      "offsety": 32,
      "properties": [
        {
          "name": "collision",
          "type": "bool",
          "value": false
        }
      ]
    },
    {
      "id": 9,
      "name": "decorations",
      "type": "objectgroup",
      "x": 0,
      "y": 0,
      "opacity": 1,
      "visible": true,
      "draworder": "topdown",
      "objects": [
        {
          "type": "decoration",
          "gid": 346,
          "x": 1313.8506682539066,
          "y": 1722.8435938909136,
          "width": 80,
          "height": 70,
          "name": "",
          "id": 19,
          "rotation": 0,
          "visible": true
        },
        {
          "type": "decoration",
          "gid": 342,
          "x": 2709.621053686543,
          "y": 822.8788641241908,
          "width": 104,
          "height": 94,
          "name": "",
          "id": 20,
          "rotation": 0,
          "visible": true
        },
        {
          "type": "decoration",
          "gid": 345,
          "x": 1582.5984536877324,
          "y": 1382.548681030057,
          "width": 64,
          "height": 59,
          "name": "",
          "id": 21,
          "rotation": 0,
          "visible": true
        },
        {
          "type": "decoration",
          "gid": 345,
          "x": 670.1400186655446,
          "y": 1072.468343507666,
          "width": 64,
          "height": 59,
          "name": "",
          "id": 22,
          "rotation": 0,
          "visible": true
        },
        {
          "type": "decoration",
          "gid": 341,
          "x": 1646.5684919764724,
          "y": 700.5141073228041,
          "width": 104,
          "height": 94,
          "name": "",
          "id": 23,
          "rotation": 0,
          "visible": true
        },
        {
          "type": "decoration",
          "gid": 345,
          "x": 981.1668255336033,
          "y": 1198.0919159886332,
          "width": 64,
          "height": 59,
          "name": "",
          "id": 24,
          "rotation": 0,
          "visible": true
        },
        {
          "type": "decoration",
          "gid": 345,
          "x": 935.7972156489582,
          "y": 1143.557489834329,
          "width": 64,
          "height": 59,
          "name": "",
          "id": 25,
          "rotation": 0,
          "visible": true
        },
        {
          "type": "decoration",
          "gid": 346,
          "x": 2216.5712947272186,
          "y": 1261.273258388821,
          "width": 80,
          "height": 70,
          "name": "",
          "id": 26,
          "rotation": 0,
          "visible": true
        },
        {
          "type": "decoration",
          "gid": 341,
          "x": 1365.5965258640763,
          "y": 1134.4758526687629,
          "width": 104,
          "height": 94,
          "name": "",
          "id": 27,
          "rotation": 0,
          "visible": true
        },
        {
          "type": "decoration",
          "gid": 344,
          "x": 1053.4218283711493,
          "y": 1451.6789970684295,
          "width": 76,
          "height": 52,
          "name": "",
          "id": 28,
          "rotation": 0,
          "visible": true
        },
        {
          "type": "decoration",
          "gid": 343,
          "x": 1637.1464897343524,
          "y": 1774.906884724509,
          "width": 124,
          "height": 110,
          "name": "",
          "id": 29,
          "rotation": 0,
          "visible": true
        },
        {
          "type": "decoration",
          "gid": 347,
          "x": 2598.7081427250287,
          "y": 1525.7220629047708,
          "width": 60,
          "height": 55,
          "name": "",
          "id": 30,
          "rotation": 0,
          "visible": true
        },
        {
          "type": "decoration",
          "gid": 347,
          "x": 2728.1386127575074,
          "y": 1003.3692497888611,
          "width": 60,
          "height": 55,
          "name": "",
          "id": 31,
          "rotation": 0,
          "visible": true
        },
        {
          "type": "decoration",
          "gid": 346,
          "x": 2203.9467865321058,
          "y": 1592.796747361263,
          "width": 80,
          "height": 70,
          "name": "",
          "id": 32,
          "rotation": 0,
          "visible": true
        },
        {
          "type": "decoration",
          "gid": 346,
          "x": 532.0075253770843,
          "y": 1012.8354360243889,
          "width": 80,
          "height": 70,
          "name": "",
          "id": 33,
          "rotation": 0,
          "visible": true
        },
        {
          "type": "decoration",
          "gid": 345,
          "x": 1442.8973226525904,
          "y": 1257.8419240444812,
          "width": 64,
          "height": 59,
          "name": "",
          "id": 34,
          "rotation": 0,
          "visible": true
        },
        {
          "type": "decoration",
          "gid": 346,
          "x": 2798.4243810416165,
          "y": 1397.3956319019653,
          "width": 80,
          "height": 70,
          "name": "",
          "id": 35,
          "rotation": 0,
          "visible": true
        },
        {
          "type": "decoration",
          "gid": 347,
          "x": 1627.5455828589622,
          "y": 502.9951131114696,
          "width": 60,
          "height": 55,
          "name": "",
          "id": 36,
          "rotation": 0,
          "visible": true
        },
        {
          "type": "decoration",
          "gid": 347,
          "x": 1947.4865063939787,
          "y": 1458.9103907691212,
          "width": 60,
          "height": 55,
          "name": "",
          "id": 37,
          "rotation": 0,
          "visible": true
        },
        {
          "type": "decoration",
          "gid": 347,
          "x": 1431.6115889085759,
          "y": 1593.4292495029874,
          "width": 60,
          "height": 55,
          "name": "",
          "id": 38,
          "rotation": 0,
          "visible": true
        },
        {
          "type": "decoration",
          "gid": 345,
          "x": 1170.6875902653812,
          "y": 891.8502402144519,
          "width": 64,
          "height": 59,
          "name": "",
          "id": 39,
          "rotation": 0,
          "visible": true
        },
        {
          "type": "decoration",
          "gid": 345,
          "x": 2415.5669543801328,
          "y": 1144.727445344261,
          "width": 64,
          "height": 59,
          "name": "",
          "id": 40,
          "rotation": 0,
          "visible": true
        },
        {
          "type": "decoration",
          "gid": 343,
          "x": 1305.7352440851926,
          "y": 620.1644970621545,
          "width": 124,
          "height": 110,
          "name": "",
          "id": 41,
          "rotation": 0,
          "visible": true
        },
        {
          "type": "decoration",
          "gid": 346,
          "x": 1576.96885915536,
          "y": 1328.9367689314297,
          "width": 80,
          "height": 70,
          "name": "",
          "id": 42,
          "rotation": 0,
          "visible": true
        },
        {
          "type": "decoration",
          "gid": 347,
          "x": 2392.7906893229497,
          "y": 1527.375865257305,
          "width": 60,
          "height": 55,
          "name": "",
          "id": 43,
          "rotation": 0,
          "visible": true
        },
        {
          "type": "decoration",
          "gid": 345,
          "x": 2404.3764317302807,
          "y": 750.4328330889003,
          "width": 64,
          "height": 59,
          "name": "",
          "id": 44,
          "rotation": 0,
          "visible": true
        },
        {
          "type": "decoration",
          "gid": 345,
          "x": 1950.2482512363022,
          "y": 430.7830677856837,
          "width": 64,
          "height": 59,
          "name": "",
          "id": 45,
          "rotation": 0,
          "visible": true
        },
        {
          "type": "decoration",
          "gid": 345,
          "x": 1963.2677161773686,
          "y": 380.4461715795628,
          "width": 64,
          "height": 59,
          "name": "",
          "id": 46,
          "rotation": 0,
          "visible": true
        },
        {
          "type": "decoration",
          "gid": 345,
          "x": 1041.8454976993062,
          "y": 1713.6508251250225,
          "width": 64,
          "height": 59,
          "name": "",
          "id": 47,
          "rotation": 0,
          "visible": true
        },
        {
          "type": "decoration",
          "gid": 344,
          "x": 1246.8105031936864,
          "y": 955.0064459326253,
          "width": 76,
          "height": 52,
          "name": "",
          "id": 48,
          "rotation": 0,
          "visible": true
        },
        {
          "type": "decoration",
          "gid": 345,
          "x": 2705.473225722231,
          "y": 1335.8561539554983,
          "width": 64,
          "height": 59,
          "name": "",
          "id": 49,
          "rotation": 0,
          "visible": true
        },
        {
          "type": "decoration",
          "gid": 344,
          "x": 2844.474305455302,
          "y": 1130.4174433044898,
          "width": 76,
          "height": 52,
          "name": "",
          "id": 50,
          "rotation": 0,
          "visible": true
        },
        {
          "type": "decoration",
          "gid": 346,
          "x": 793.4010930864815,
          "y": 1146.5507535167874,
          "width": 80,
          "height": 70,
          "name": "",
          "id": 51,
          "rotation": 0,
          "visible": true
        },
        {
          "type": "decoration",
          "gid": 345,
          "x": 1508.3376844669629,
          "y": 1577.5093362872478,
          "width": 64,
          "height": 59,
          "name": "",
          "id": 52,
          "rotation": 0,
          "visible": true
        },
        {
          "type": "decoration",
          "gid": 342,
          "x": 1058.4966023773363,
          "y": 1334.8210407705426,
          "width": 104,
          "height": 94,
          "name": "",
          "id": 53,
          "rotation": 0,
          "visible": true
        },
        {
          "type": "decoration",
          "gid": 343,
          "x": 2472.773942256688,
          "y": 690.2526786919569,
          "width": 124,
          "height": 110,
          "name": "",
          "id": 54,
          "rotation": 0,
          "visible": true
        },
        {
          "type": "decoration",
          "gid": 344,
          "x": 984.499092805681,
          "y": 1711.794917582681,
          "width": 76,
          "height": 52,
          "name": "",
          "id": 55,
          "rotation": 0,
          "visible": true
        },
        {
          "type": "decoration",
          "gid": 343,
          "x": 2392.346358430279,
          "y": 443.0803079240153,
          "width": 124,
          "height": 110,
          "name": "",
          "id": 56,
          "rotation": 0,
          "visible": true
        },
        {
          "type": "decoration",
          "gid": 341,
          "x": 866.312396162543,
          "y": 828.707452947559,
          "width": 104,
          "height": 94,
          "name": "",
          "id": 57,
          "rotation": 0,
          "visible": true
        },
        {
          "type": "decoration",
          "gid": 345,
          "x": 2074.4613256501584,
          "y": 559.4077637622842,
          "width": 64,
          "height": 59,
          "name": "",
          "id": 58,
          "rotation": 0,
          "visible": true
        },
        {
          "type": "decoration",
          "gid": 346,
          "x": 1067.2877621966825,
          "y": 1402.6234407078114,
          "width": 80,
          "height": 70,
          "name": "",
          "id": 59,
          "rotation": 0,
          "visible": true
        },
        {
          "type": "decoration",
          "gid": 344,
          "x": 2351.0555977903773,
          "y": 1959.4442735893697,
          "width": 76,
          "height": 52,
          "name": "",
          "id": 60,
          "rotation": 0,
          "visible": true
        },
        {
          "type": "decoration",
          "gid": 341,
          "x": 2468.6973946068483,
          "y": 1913.3033672733307,
          "width": 104,
          "height": 94,
          "name": "",
          "id": 61,
          "rotation": 0,
          "visible": true
        },
        {
          "type": "decoration",
          "gid": 346,
          "x": 466.7106879489391,
          "y": 1271.269175115636,
          "width": 80,
          "height": 70,
          "name": "",
          "id": 62,
          "rotation": 0,
          "visible": true
        },
        {
          "type": "decoration",
          "gid": 346,
          "x": 1506.0105959803611,
          "y": 809.5968533247967,
          "width": 80,
          "height": 70,
          "name": "",
          "id": 63,
          "rotation": 0,
          "visible": true
        },
        {
          "type": "decoration",
          "gid": 344,
          "x": 2324.231308756498,
          "y": 1142.3986586527685,
          "width": 76,
          "height": 52,
          "name": "",
          "id": 64,
          "rotation": 0,
          "visible": true
        },
        {
          "type": "decoration",
          "gid": 343,
          "x": 1127.5480789107962,
          "y": 1139.4227302949,
          "width": 124,
          "height": 110,
          "name": "",
          "id": 65,
          "rotation": 0,
          "visible": true
        },
        {
          "type": "decoration",
          "gid": 341,
          "x": 751.7703629512212,
          "y": 998.776805144078,
          "width": 104,
          "height": 94,
          "name": "",
          "id": 66,
          "rotation": 0,
          "visible": true
        },
        {
          "type": "decoration",
          "gid": 343,
          "x": 991.5111838921223,
          "y": 1127.0443358125635,
          "width": 124,
          "height": 110,
          "name": "",
          "id": 67,
          "rotation": 0,
          "visible": true
        },
        {
          "type": "decoration",
          "gid": 345,
          "x": 2130.678799083792,
          "y": 1207.2017830008947,
          "width": 64,
          "height": 59,
          "name": "",
          "id": 68,
          "rotation": 0,
          "visible": true
        },
        {
          "type": "decoration",
          "gid": 343,
          "x": 2732.0262471505034,
          "y": 881.8496661563343,
          "width": 124,
          "height": 110,
          "name": "",
          "id": 69,
          "rotation": 0,
          "visible": true
        },
        {
          "type": "decoration",
          "gid": 346,
          "x": 1057.2364135199352,
          "y": 1194.0075282694972,
          "width": 80,
          "height": 70,
          "name": "",
          "id": 70,
          "rotation": 0,
          "visible": true
        },
        {
          "type": "decoration",
          "gid": 345,
          "x": 2072.939181638991,
          "y": 370.324243045734,
          "width": 64,
          "height": 59,
          "name": "",
          "id": 71,
          "rotation": 0,
          "visible": true
        },
        {
          "type": "decoration",
          "gid": 348,
          "x": 1372.9285119251354,
          "y": 483.6482758975343,
          "width": 52,
          "height": 44,
          "name": "",
          "id": 72,
          "rotation": 0,
          "visible": true
        },
        {
          "type": "decoration",
          "gid": 348,
          "x": 1499.240136447272,
          "y": 1832.5617668098905,
          "width": 52,
          "height": 44,
          "name": "",
          "id": 73,
          "rotation": 0,
          "visible": true
        },
        {
          "type": "decoration",
          "gid": 348,
          "x": 1258.6639371925937,
          "y": 1905.1341704188021,
          "width": 52,
          "height": 44,
          "name": "",
          "id": 74,
          "rotation": 0,
          "visible": true
        },
        {
          "type": "decoration",
          "gid": 344,
          "x": 2789.501223110893,
          "y": 1831.6995107939517,
          "width": 76,
          "height": 52,
          "name": "",
          "id": 75,
          "rotation": 0,
          "visible": true
        },
        {
          "type": "decoration",
          "gid": 349,
          "x": 1946.0985112774465,
          "y": 304.1733711921538,
          "width": 104,
          "height": 86,
          "name": "",
          "id": 76,
          "rotation": 0,
          "visible": true
        },
        {
          "type": "decoration",
          "gid": 344,
          "x": 807.2455005297389,
          "y": 623.4607617770189,
          "width": 76,
          "height": 52,
          "name": "",
          "id": 77,
          "rotation": 0,
          "visible": true
        },
        {
          "type": "decoration",
          "gid": 344,
          "x": 341.61014119370026,
          "y": 1264.2633755358572,
          "width": 76,
          "height": 52,
          "name": "",
          "id": 78,
          "rotation": 0,
          "visible": true
        },
        {
          "type": "decoration",
          "gid": 348,
          "x": 2725.538835112056,
          "y": 565.3719482547269,
          "width": 52,
          "height": 44,
          "name": "",
          "id": 79,
          "rotation": 0,
          "visible": true
        },
        {
          "type": "decoration",
          "gid": 348,
          "x": 478.1763917383226,
          "y": 1581.191279980529,
          "width": 52,
          "height": 44,
          "name": "",
          "id": 80,
          "rotation": 0,
          "visible": true
        },
        {
          "type": "decoration",
          "gid": 348,
          "x": 410.3924350010519,
          "y": 1457.199436585998,
          "width": 52,
          "height": 44,
          "name": "",
          "id": 81,
          "rotation": 0,
          "visible": true
        },
        {
          "type": "decoration",
          "gid": 348,
          "x": 1131.9516375917437,
          "y": 1894.2642224825086,
          "width": 52,
          "height": 44,
          "name": "",
          "id": 82,
          "rotation": 0,
          "visible": true
        },
        {
          "type": "decoration",
          "gid": 349,
          "x": 1365.7234621340183,
          "y": 563.5228819149213,
          "width": 104,
          "height": 86,
          "name": "",
          "id": 83,
          "rotation": 0,
          "visible": true
        },
        {
          "type": "decoration",
          "gid": 349,
          "x": 2003.7570073439995,
          "y": 305.95456846578986,
          "width": 104,
          "height": 86,
          "name": "",
          "id": 84,
          "rotation": 0,
          "visible": true
        },
        {
          "type": "decoration",
          "gid": 348,
          "x": 2984.9744043517358,
          "y": 1200.5701728508557,
          "width": 52,
          "height": 44,
          "name": "",
          "id": 85,
          "rotation": 0,
          "visible": true
        },
        {
          "type": "decoration",
          "gid": 348,
          "x": 2778.3565457265063,
          "y": 553.7342656479386,
          "width": 52,
          "height": 44,
          "name": "",
          "id": 86,
          "rotation": 0,
          "visible": true
        },
        {
          "type": "decoration",
          "gid": 349,
          "x": 875.2731095606148,
          "y": 1771.0070836486143,
          "width": 104,
          "height": 86,
          "name": "",
          "id": 87,
          "rotation": 0,
          "visible": true
        },
        {
          "type": "decoration",
          "gid": 349,
          "x": 2402.2818425803343,
          "y": 365.69399205746015,
          "width": 104,
          "height": 86,
          "name": "",
          "id": 88,
          "rotation": 0,
          "visible": true
        },
        {
          "type": "decoration",
          "gid": 348,
          "x": 2844.9133709724383,
          "y": 1450.1793502043963,
          "width": 52,
          "height": 44,
          "name": "",
          "id": 89,
          "rotation": 0,
          "visible": true
        },
        {
          "type": "decoration",
          "gid": 349,
          "x": 1876.2763557483177,
          "y": 1770.9320101701423,
          "width": 104,
          "height": 86,
          "name": "",
          "id": 90,
          "rotation": 0,
          "visible": true
        },
        {
          "type": "decoration",
          "gid": 349,
          "x": 682.1378449757385,
          "y": 752.7188977929225,
          "width": 104,
          "height": 86,
          "name": "",
          "id": 91,
          "rotation": 0,
          "visible": true
        },
        {
          "type": "decoration",
          "gid": 348,
          "x": 2970.053120583618,
          "y": 999.2500303834443,
          "width": 52,
          "height": 44,
          "name": "",
          "id": 92,
          "rotation": 0,
          "visible": true
        },
        {
          "type": "decoration",
          "gid": 344,
          "x": 1760.373995931864,
          "y": 373.0335409172292,
          "width": 76,
          "height": 52,
          "name": "",
          "id": 93,
          "rotation": 0,
          "visible": true
        },
        {
          "type": "decoration",
          "gid": 349,
          "x": 2086.345315198194,
          "y": 297.58295880901744,
          "width": 104,
          "height": 86,
          "name": "",
          "id": 94,
          "rotation": 0,
          "visible": true
        },
        {
          "type": "decoration",
          "gid": 344,
          "x": 2923.515372034574,
          "y": 1383.1722318764416,
          "width": 76,
          "height": 52,
          "name": "",
          "id": 95,
          "rotation": 0,
          "visible": true
        },
        {
          "type": "decoration",
          "gid": 344,
          "x": 537.6650466040601,
          "y": 875.485059714827,
          "width": 76,
          "height": 52,
          "name": "",
          "id": 96,
          "rotation": 0,
          "visible": true
        },
        {
          "type": "decoration",
          "gid": 348,
          "x": 2917.722754675131,
          "y": 814.782344115954,
          "width": 52,
          "height": 44,
          "name": "",
          "id": 97,
          "rotation": 0,
          "visible": true
        },
        {
          "type": "decoration",
          "gid": 348,
          "x": 1565.4102475870434,
          "y": 1841.6131852911867,
          "width": 52,
          "height": 44,
          "name": "",
          "id": 98,
          "rotation": 0,
          "visible": true
        },
        {
          "type": "decoration",
          "gid": 344,
          "x": 1385.8386190064543,
          "y": 1831.2469124605468,
          "width": 76,
          "height": 52,
          "name": "",
          "id": 99,
          "rotation": 0,
          "visible": true
        },
        {
          "type": "decoration",
          "gid": 349,
          "x": 357.8339364937719,
          "y": 1454.5482035857365,
          "width": 104,
          "height": 86,
          "name": "",
          "id": 100,
          "rotation": 0,
          "visible": true
        },
        {
          "type": "decoration",
          "gid": 348,
          "x": 2475.6487930745857,
          "y": 2031.9965263437591,
          "width": 52,
          "height": 44,
          "name": "",
          "id": 101,
          "rotation": 0,
          "visible": true
        },
        {
          "type": "decoration",
          "gid": 348,
          "x": 659.4748923537251,
          "y": 1647.0811458778069,
          "width": 52,
          "height": 44,
          "name": "",
          "id": 102,
          "rotation": 0,
          "visible": true
        },
        {
          "type": "decoration",
          "gid": 350,
          "x": 1056.0,
          "y": 2035.2,
          "width": 124,
          "height": 98,
          "name": "",
          "id": 103,
          "rotation": 0,
          "visible": true
        },
        {
          "type": "decoration",
          "gid": 350,
          "x": 2912.0,
          "y": 2099.2,
          "width": 124,
          "height": 98,
          "name": "",
          "id": 104,
          "rotation": 0,
          "visible": true
        },
        {
          "type": "decoration",
          "gid": 350,
          "x": 160.0,
          "y": 819.2,
          "width": 124,
          "height": 98,
          "name": "",
          "id": 105,
          "rotation": 0,
          "visible": true
        },
        {
          "type": "decoration",
          "gid": 350,
          "x": 2656.0,
          "y": 307.2,
          "width": 124,
          "height": 98,
          "name": "",
          "id": 106,
          "rotation": 0,
          "visible": true
        },
        {
          "type": "decoration",
          "gid": 350,
          "x": 2912.0,
          "y": 371.2,
          "width": 124,
          "height": 98,
          "name": "",
          "id": 107,
          "rotation": 0,
          "visible": true
        },
        {
          "type": "decoration",
          "gid": 350,
          "x": 2976.0,
          "y": 1715.2,
          "width": 124,
          "height": 98,
          "name": "",
          "id": 108,
          "rotation": 0,
          "visible": true
        },
        {
          "type": "decoration",
          "gid": 350,
          "x": 3104.0,
          "y": 1075.2,
          "width": 124,
          "height": 98,
          "name": "",
          "id": 109,
          "rotation": 0,
          "visible": true
        }
      ]
    },
    {
      "id": 10,
      "name": "gameplay",
      "type": "objectgroup",
      "x": 0,
      "y": 0,
      "opacity": 1,
      "visible": true,
      "draworder": "topdown",
      "objects": [
        {
          "name": "campfire",
          "type": "campfire",
          "x": 1824.0,
          "y": 1184.0,
          "point": true,
          "id": 1,
          "rotation": 0,
          "visible": true,
          "width": 0,
          "height": 0
        },
        {
          "name": "player_start",
          "type": "player_start",
          "x": 1824.0,
          "y": 1312.0,
          "point": true,
          "id": 2,
          "rotation": 0,
          "visible": true,
          "width": 0,
          "height": 0
        },
        {
          "name": "wilds_00",
          "type": "wilds",
          "x": 320,
          "y": 320,
          "width": 1472,
          "height": 832,
          "id": 3,
          "rotation": 0,
          "visible": true
        },
        {
          "name": "wilds_10",
          "type": "wilds",
          "x": 1792,
          "y": 256,
          "width": 1216,
          "height": 896,
          "id": 4,
          "rotation": 0,
          "visible": true
        },
        {
          "name": "wilds_01",
          "type": "wilds",
          "x": 320,
          "y": 1152,
          "width": 1472,
          "height": 832,
          "id": 5,
          "rotation": 0,
          "visible": true
        },
        {
          "name": "wilds_11",
          "type": "wilds",
          "x": 1792,
          "y": 1152,
          "width": 1216,
          "height": 896,
          "id": 6,
          "rotation": 0,
          "visible": true
        },
        {
          "name": "spawn_0",
          "type": "enemy_spawn",
          "x": 2976.0,
          "y": 1184.0,
          "point": true,
          "id": 7,
          "rotation": 0,
          "visible": true,
          "width": 0,
          "height": 0
        },
        {
          "name": "spawn_1",
          "type": "enemy_spawn",
          "x": 2720.0,
          "y": 1696.0,
          "point": true,
          "id": 8,
          "rotation": 0,
          "visible": true,
          "width": 0,
          "height": 0
        },
        {
          "name": "spawn_2",
          "type": "enemy_spawn",
          "x": 2272.0,
          "y": 1952.0,
          "point": true,
          "id": 9,
          "rotation": 0,
          "visible": true,
          "width": 0,
          "height": 0
        },
        {
          "name": "spawn_3",
          "type": "enemy_spawn",
          "x": 1824.0,
          "y": 1760.0,
          "point": true,
          "id": 10,
          "rotation": 0,
          "visible": true,
          "width": 0,
          "height": 0
        },
        {
          "name": "spawn_4",
          "type": "enemy_spawn",
          "x": 1440.0,
          "y": 1824.0,
          "point": true,
          "id": 11,
          "rotation": 0,
          "visible": true,
          "width": 0,
          "height": 0
        },
        {
          "name": "spawn_5",
          "type": "enemy_spawn",
          "x": 864.0,
          "y": 1760.0,
          "point": true,
          "id": 12,
          "rotation": 0,
          "visible": true,
          "width": 0,
          "height": 0
        },
        {
          "name": "spawn_6",
          "type": "enemy_spawn",
          "x": 352.0,
          "y": 1184.0,
          "point": true,
          "id": 13,
          "rotation": 0,
          "visible": true,
          "width": 0,
          "height": 0
        },
        {
          "name": "spawn_7",
          "type": "enemy_spawn",
          "x": 800.0,
          "y": 608.0,
          "point": true,
          "id": 14,
          "rotation": 0,
          "visible": true,
          "width": 0,
          "height": 0
        },
        {
          "name": "spawn_8",
          "type": "enemy_spawn",
          "x": 1440.0,
          "y": 480.0,
          "point": true,
          "id": 15,
          "rotation": 0,
          "visible": true,
          "width": 0,
          "height": 0
        },
        {
          "name": "spawn_9",
          "type": "enemy_spawn",
          "x": 1824.0,
          "y": 352.0,
          "point": true,
          "id": 16,
          "rotation": 0,
          "visible": true,
          "width": 0,
          "height": 0
        },
        {
          "name": "spawn_10",
          "type": "enemy_spawn",
          "x": 2336.0,
          "y": 288.0,
          "point": true,
          "id": 17,
          "rotation": 0,
          "visible": true,
          "width": 0,
          "height": 0
        },
        {
          "name": "spawn_11",
          "type": "enemy_spawn",
          "x": 2848.0,
          "y": 608.0,
          "point": true,
          "id": 18,
          "rotation": 0,
          "visible": true,
          "width": 0,
          "height": 0
        }
      ]
    },
    {
      "id": 11,
      "name": "collision",
      "type": "objectgroup",
      "x": 0,
      "y": 0,
      "opacity": 1,
      "visible": false,
      "draworder": "topdown",
      "objects": [
        {
          "type": "collision",
          "x": 0,
          "y": 0,
          "width": 3584,
          "height": 256,
          "name": "",
          "id": 117,
          "rotation": 0,
          "visible": true
        },
        {
          "type": "collision",
          "x": 0,
          "y": 256,
          "width": 1856,
          "height": 64,
          "name": "",
          "id": 118,
          "rotation": 0,
          "visible": true
        },
        {
          "type": "collision",
          "x": 2432,
          "y": 256,
          "width": 1152,
          "height": 64,
          "name": "",
          "id": 119,
          "rotation": 0,
          "visible": true
        },
        {
          "type": "collision",
          "x": 0,
          "y": 320,
          "width": 1664,
          "height": 64,
          "name": "",
          "id": 120,
          "rotation": 0,
          "visible": true
        },
        {
          "type": "collision",
          "x": 2496,
          "y": 320,
          "width": 1088,
          "height": 64,
          "name": "",
          "id": 121,
          "rotation": 0,
          "visible": true
        },
        {
          "type": "collision",
          "x": 0,
          "y": 384,
          "width": 1472,
          "height": 64,
          "name": "",
          "id": 122,
          "rotation": 0,
          "visible": true
        },
        {
          "type": "collision",
          "x": 2560,
          "y": 384,
          "width": 1024,
          "height": 64,
          "name": "",
          "id": 123,
          "rotation": 0,
          "visible": true
        },
        {
          "type": "collision",
          "x": 0,
          "y": 448,
          "width": 1344,
          "height": 64,
          "name": "",
          "id": 124,
          "rotation": 0,
          "visible": true
        },
        {
          "type": "collision",
          "x": 2624,
          "y": 448,
          "width": 960,
          "height": 64,
          "name": "",
          "id": 125,
          "rotation": 0,
          "visible": true
        },
        {
          "type": "collision",
          "x": 0,
          "y": 512,
          "width": 896,
          "height": 64,
          "name": "",
          "id": 126,
          "rotation": 0,
          "visible": true
        },
        {
          "type": "collision",
          "x": 2816,
          "y": 512,
          "width": 768,
          "height": 64,
          "name": "",
          "id": 127,
          "rotation": 0,
          "visible": true
        },
        {
          "type": "collision",
          "x": 0,
          "y": 576,
          "width": 768,
          "height": 64,
          "name": "",
          "id": 128,
          "rotation": 0,
          "visible": true
        },
        {
          "type": "collision",
          "x": 2112,
          "y": 576,
          "width": 128,
          "height": 64,
          "name": "",
          "id": 129,
          "rotation": 0,
          "visible": true
        },
        {
          "type": "collision",
          "x": 2880,
          "y": 576,
          "width": 704,
          "height": 128,
          "name": "",
          "id": 130,
          "rotation": 0,
          "visible": true
        },
        {
          "type": "collision",
          "x": 0,
          "y": 640,
          "width": 640,
          "height": 64,
          "name": "",
          "id": 131,
          "rotation": 0,
          "visible": true
        },
        {
          "type": "collision",
          "x": 2048,
          "y": 640,
          "width": 256,
          "height": 64,
          "name": "",
          "id": 132,
          "rotation": 0,
          "visible": true
        },
        {
          "type": "collision",
          "x": 0,
          "y": 704,
          "width": 576,
          "height": 64,
          "name": "",
          "id": 133,
          "rotation": 0,
          "visible": true
        },
        {
          "type": "collision",
          "x": 1984,
          "y": 704,
          "width": 384,
          "height": 64,
          "name": "",
          "id": 134,
          "rotation": 0,
          "visible": true
        },
        {
          "type": "collision",
          "x": 2944,
          "y": 704,
          "width": 640,
          "height": 256,
          "name": "",
          "id": 135,
          "rotation": 0,
          "visible": true
        },
        {
          "type": "collision",
          "x": 0,
          "y": 768,
          "width": 512,
          "height": 64,
          "name": "",
          "id": 136,
          "rotation": 0,
          "visible": true
        },
        {
          "type": "collision",
          "x": 1984,
          "y": 768,
          "width": 576,
          "height": 64,
          "name": "",
          "id": 137,
          "rotation": 0,
          "visible": true
        },
        {
          "type": "collision",
          "x": 0,
          "y": 832,
          "width": 448,
          "height": 64,
          "name": "",
          "id": 138,
          "rotation": 0,
          "visible": true
        },
        {
          "type": "collision",
          "x": 1984,
          "y": 832,
          "width": 640,
          "height": 256,
          "name": "",
          "id": 139,
          "rotation": 0,
          "visible": true
        },
        {
          "type": "collision",
          "x": 0,
          "y": 896,
          "width": 384,
          "height": 64,
          "name": "",
          "id": 140,
          "rotation": 0,
          "visible": true
        },
        {
          "type": "collision",
          "x": 0,
          "y": 960,
          "width": 320,
          "height": 512,
          "name": "",
          "id": 141,
          "rotation": 0,
          "visible": true
        },
        {
          "type": "collision",
          "x": 3008,
          "y": 960,
          "width": 576,
          "height": 320,
          "name": "",
          "id": 142,
          "rotation": 0,
          "visible": true
        },
        {
          "type": "collision",
          "x": 2944,
          "y": 1280,
          "width": 640,
          "height": 128,
          "name": "",
          "id": 143,
          "rotation": 0,
          "visible": true
        },
        {
          "type": "collision",
          "x": 2880,
          "y": 1408,
          "width": 704,
          "height": 64,
          "name": "",
          "id": 144,
          "rotation": 0,
          "visible": true
        },
        {
          "type": "collision",
          "x": 0,
          "y": 1472,
          "width": 384,
          "height": 64,
          "name": "",
          "id": 145,
          "rotation": 0,
          "visible": true
        },
        {
          "type": "collision",
          "x": 2816,
          "y": 1472,
          "width": 768,
          "height": 64,
          "name": "",
          "id": 146,
          "rotation": 0,
          "visible": true
        },
        {
          "type": "collision",
          "x": 0,
          "y": 1536,
          "width": 448,
          "height": 64,
          "name": "",
          "id": 147,
          "rotation": 0,
          "visible": true
        },
        {
          "type": "collision",
          "x": 2752,
          "y": 1536,
          "width": 832,
          "height": 192,
          "name": "",
          "id": 148,
          "rotation": 0,
          "visible": true
        },
        {
          "type": "collision",
          "x": 0,
          "y": 1600,
          "width": 512,
          "height": 64,
          "name": "",
          "id": 149,
          "rotation": 0,
          "visible": true
        },
        {
          "type": "collision",
          "x": 0,
          "y": 1664,
          "width": 640,
          "height": 64,
          "name": "",
          "id": 150,
          "rotation": 0,
          "visible": true
        },
        {
          "type": "collision",
          "x": 0,
          "y": 1728,
          "width": 832,
          "height": 64,
          "name": "",
          "id": 151,
          "rotation": 0,
          "visible": true
        },
        {
          "type": "collision",
          "x": 2816,
          "y": 1728,
          "width": 768,
          "height": 192,
          "name": "",
          "id": 152,
          "rotation": 0,
          "visible": true
        },
        {
          "type": "collision",
          "x": 0,
          "y": 1792,
          "width": 1024,
          "height": 64,
          "name": "",
          "id": 153,
          "rotation": 0,
          "visible": true
        },
        {
          "type": "collision",
          "x": 1728,
          "y": 1792,
          "width": 320,
          "height": 64,
          "name": "",
          "id": 154,
          "rotation": 0,
          "visible": true
        },
        {
          "type": "collision",
          "x": 0,
          "y": 1856,
          "width": 1088,
          "height": 64,
          "name": "",
          "id": 155,
          "rotation": 0,
          "visible": true
        },
        {
          "type": "collision",
          "x": 1344,
          "y": 1856,
          "width": 768,
          "height": 64,
          "name": "",
          "id": 156,
          "rotation": 0,
          "visible": true
        },
        {
          "type": "collision",
          "x": 0,
          "y": 1920,
          "width": 1152,
          "height": 64,
          "name": "",
          "id": 157,
          "rotation": 0,
          "visible": true
        },
        {
          "type": "collision",
          "x": 1280,
          "y": 1920,
          "width": 896,
          "height": 64,
          "name": "",
          "id": 158,
          "rotation": 0,
          "visible": true
        },
        {
          "type": "collision",
          "x": 2752,
          "y": 1920,
          "width": 832,
          "height": 64,
          "name": "",
          "id": 159,
          "rotation": 0,
          "visible": true
        },
        {
          "type": "collision",
          "x": 0,
          "y": 1984,
          "width": 2240,
          "height": 64,
          "name": "",
          "id": 160,
          "rotation": 0,
          "visible": true
        },
        {
          "type": "collision",
          "x": 2560,
          "y": 1984,
          "width": 1024,
          "height": 64,
          "name": "",
          "id": 161,
          "rotation": 0,
          "visible": true
        },
        {
          "type": "collision",
          "x": 0,
          "y": 2048,
          "width": 3584,
          "height": 256,
          "name": "",
          "id": 162,
          "rotation": 0,
          "visible": true
        }
      ],
      "class": "collision"
    },
    {
      "id": 12,
      "name": "clouds",
      "type": "objectgroup",
      "x": 0,
      "y": 0,
      "opacity": 0.45,
      "visible": true,
      "draworder": "topdown",
      "objects": [
        {
          "type": "cloud",
          "gid": 351,
          "x": 750.4748629682949,
          "y": 2004.2340737976356,
          "width": 560,
          "height": 352,
          "name": "",
          "id": 110,
          "rotation": 0,
          "visible": true
        },
        {
          "type": "cloud",
          "gid": 351,
          "x": 1104.610931155218,
          "y": 2266.3721958635506,
          "width": 560,
          "height": 352,
          "name": "",
          "id": 111,
          "rotation": 0,
          "visible": true
        },
        {
          "type": "cloud",
          "gid": 352,
          "x": 1532.4863444875082,
          "y": 1236.1846243187645,
          "width": 560,
          "height": 432,
          "name": "",
          "id": 112,
          "rotation": 0,
          "visible": true
        },
        {
          "type": "cloud",
          "gid": 351,
          "x": 1671.7427841182957,
          "y": 602.1020674058957,
          "width": 560,
          "height": 352,
          "name": "",
          "id": 113,
          "rotation": 0,
          "visible": true
        },
        {
          "type": "cloud",
          "gid": 353,
          "x": 2577.6690404006567,
          "y": 1098.879942016171,
          "width": 560,
          "height": 309,
          "name": "",
          "id": 114,
          "rotation": 0,
          "visible": true
        },
        {
          "type": "cloud",
          "gid": 352,
          "x": 1534.7720959284688,
          "y": 442.4906560219023,
          "width": 560,
          "height": 432,
          "name": "",
          "id": 115,
          "rotation": 0,
          "visible": true
        },
        {
          "type": "cloud",
          "gid": 352,
          "x": 70.54073016479532,
          "y": 2205.2647078945874,
          "width": 560,
          "height": 432,
          "name": "",
          "id": 116,
          "rotation": 0,
          "visible": true
        }
      ],
      "parallaxx": 1.25,
      "parallaxy": 1.25
    }
  ]
}
