{
 "compressionlevel": -1,
 "height": 28,
 "infinite": false,
 "layers": [
  {
   "id": 1,
   "name": "ground",
   "type": "tilelayer",
   "opacity": 1,
   "visible": true,
   "x": 0,
   "y": 0,
   "width": 12,
   "height": 28,
   "data": [
    4,
    4,
    2,
    1,
    1,
    1,
    1,
    1,
    1,
    1,
    1,
    1,
    2,
    4,
    4,
    1,
    1,
    1,
    1,
    1,
    1,
    1,
    1,
    1,
    3,
    3,
    4,
    4,
    1,
    1,
    1,
    1,
    1,
    1,
    1,
    1,
    1,
    1,
    1,
    4,
    4,
    1,
    1,
    1,
    1,
    1,
    1,
    1,
    1,
    1,
    1,
    1,
    4,
    4,
    1,
    1,
    1,
    1,
    1,
    1,
    1,
    1,
    1,
    1,
    1,
    4,
    4,
    1,
    1,
    1,
    1,
    1,
    1,
    1,
    1,
    1,
    1,
    1,
    4,
    4,
    1,
    1,
    1,
    1,
    1,
    1,
    1,
    1,
    1,
    1,
    1,
    4,
    4,
    1,
    1,
    1,
    2,
    2,
    2,
    3,
    1,
    1,
    1,
    1,
    4,
    4,
    1,
    1,
    2,
    2,
    2,
    2,
    3,
    3,
    3,
    1,
    1,
    4,
    4,
    1,
    2,
    2,
    2,
    2,
    2,
    2,
    3,
    3,
    1,
    1,
    4,
    4,
    2,
    2,
    2,
    2,
    2,
    2,
    2,
    3,
    1,
    1,
    1,
    4,
    2,
    2,
    2,
    2,
    2,
    2,
    2,
    2,
    2,
    3,
    3,
    3,
    2,
    2,
    2,
    2,
    2,
    2,
    2,
    2,
    2,
    2,
    2,
    2,
    2,
    2,
    2,
    2,
    2,
    2,
    2,
    2,
    2,
    2,
    2,
    2,
    2,
    2,
    2,
    2,
    2,
    2,
    2,
    2,
    2,
    2,
    2,
    2,
    2,
    2,
    2,
    2,
    2,
    2,
    2,
    2,
    2,
    2,
    2,
    2,
    1,
    3,
    3,
    3,
    2,
    2,
    2,
    2,
    2,
    2,
    2,
    2,
    1,
    1,
    1,
    1,
    1,
    1,
    3,
    2,
    2,
    2,
    2,
    2,
    1,
    1,
    1,
    1,
    1,
    1,
    1,
    3,
    2,
    2,
    2,
    2,
    1,
    1,
    1,
    1,
    1,
    1,
    1,
    3,
    2,
    2,
    2,
    2,
    1,
    1,
    1,
    1,
    1,
    1,
    1,
    3,
    2,
    2,
    2,
    2,
    1,
    1,
    1,
    1,
    1,
    1,
    1,
    1,
    2,
    2,
    2,
    2,
    3,
    3,
    1,
    1,
    1,
    1,
    1,
    1,
    1,
    2,
    2,
    2,
    2,
    2,
    3,
    1,
    1,
    1,
    1,
    1,
    1,
    3,
    2,
    2,
    2,
    2,
    3,
    1,
    1,
    1,
    1,
    1,
    1,
    3,
    2,
    2,
    2,
    2,
    3,
    1,
    1,
    1,
    1,
    1,
    1,
    3,
    2,
    2,
    2,
    2,
    3,
    1,
    1,
    1,
    1,
    1,
    1,
    1,
    3,
    3
   ]
  }
 ],
 "orientation": "staggered",
 "renderorder": "right-down",
 "tiledversion": "1.12.0",
 "tileheight": 32,
 "tilesets": [
  {
   "firstgid": 1,
   "source": "../tilesets/diamonds.tsj"
  }
 ],
 "tilewidth": 64,
 "type": "map",
 "version": "1.12",
 "width": 12,
 "staggeraxis": "y",
 "staggerindex": "odd",
 "nextlayerid": 2,
 "nextobjectid": 1
}
