{
 "compressionlevel": -1,
 "height": 12,
 "infinite": false,
 "layers": [
  {
   "id": 1,
   "name": "ground",
   "type": "tilelayer",
   "opacity": 1,
   "visible": true,
   "x": 0,
   "y": 0,
   "width": 20,
   "height": 12,
   "data": [
    9,
    9,
    9,
    9,
    4,
    4,
    1,
    1,
    1,
    1,
    1,
    1,
    1,
    1,
    1,
    9,
    9,
    9,
    9,
    4,
    9,
    9,
    4,
    1,
    1,
    1,
    1,
    1,
    1,
    1,
    1,
    1,
    1,
    1,
    1,
    1,
    4,
    4,
    4,
    9,
    9,
    4,
    1,
    1,
    1,
    1,
    1,
    1,
    1,
    1,
    1,
    1,
    1,
    1,
    1,
    1,
    1,
    1,
    4,
    9,
    4,
    1,
    1,
    1,
    1,
    1,
    1,
    1,
    1,
    1,
    1,
    1,
    1,
    1,
    1,
    1,
    1,
    1,
    4,
    9,
    4,
    1,
    1,
    1,
    1,
    1,
    1,
    1,
    1,
    1,
    1,
    1,
    1,
    1,
    1,
    1,
    1,
    1,
    4,
    9,
    1,
    1,
    1,
    1,
    1,
    1,
    1,
    1,
    1,
    1,
    1,
    1,
    1,
    1,
    1,
    1,
    1,
    1,
    1,
    9,
    1,
    1,
    1,
    1,
    1,
    1,
    1,
    1,
    1,
    1,
    1,
    1,
    1,
    1,
    1,
    1,
    1,
    1,
    1,
    9,
    1,
    1,
    1,
    1,
    1,
    1,
    1,
    1,
    1,
    1,
    1,
    1,
    1,
    1,
    1,
    1,
    1,
    1,
    1,
    9,
    1,
    1,
    1,
    1,
    1,
    1,
    1,
    9,
    9,
    9,
    1,
    1,
    1,
    1,
    1,
    1,
    1,
    1,
    1,
    9,
    1,
    1,
    1,
    1,
    1,
    1,
    4,
    9,
    9,
    9,
    4,
    1,
    1,
    1,
    1,
    1,
    1,
    1,
    1,
    9,
    4,
    1,
    1,
    1,
    1,
    1,
    4,
    9,
    9,
    9,
    9,
    9,
    4,
    4,
    4,
    4,
    1,
    4,
    9,
    9,
    9,
    9,
    1,
    1,
    1,
    1,
    4,
    9,
    9,
    9,
    9,
    9,
    9,
    9,
    9,
    9,
    9,
    9,
    9,
    9
   ]
  }
 ],
 "orientation": "orthogonal",
 "renderorder": "right-down",
 "tiledversion": "1.12.0",
 "tileheight": 32,
 "tilesets": [
  {
   "firstgid": 1,
   "source": "../../tilesets/terrain.tsj"
  }
 ],
 "tilewidth": 32,
 "type": "map",
 "version": "1.12",
 "width": 20,
 "properties": [
  {
   "name": "title",
   "type": "string",
   "value": "Island 0, 0"
  }
 ],
 "nextlayerid": 2,
 "nextobjectid": 1
}
